; generated by PrusaSlicer 2.5.0+win64 on 2023-03-05 at 04:12:51 UTC


;
;

;
;
; 

; external perimeters extrusion width = 0.42mm
; perimeters extrusion width = 0.44mm
; infill extrusion width = 0.44mm
; solid infill extrusion width = 0.44mm
; top infill extrusion width = 0.40mm
; first layer extrusion width = 0.42mm

M107
M104 S210 ; set temperature
;TYPE:Custom
; You can use following code instead if your PRINT_START macro support Chamber and print area bedmesh
PRINT_START EXTRUDER=210
M109 S210 ; set temperature and wait for it to be reached
G21 ; set units to millimeters
G90 ; use absolute coordinates
M83 ; use relative distances for extrusion
; Filament gcode
M107
;LAYER_CHANGE
;Z:0.2
;HEIGHT:0.2
;BEFORE_LAYER_CHANGE
G92 E0
;0.2


G1 E-2 F2400
G1 Z.2 F9000
;AFTER_LAYER_CHANGE
;0.2
G1 X19.107 Y21.203
G1 E2 F1800
M204 S500
;TYPE:Skirt/Brim
;WIDTH:0.42
G1 F1200
G1 X21 Y20.623 E.06207
G1 X99 Y20.623 E2.44563
G1 X100.583 Y21.017 E.05115
G1 X101.797 Y22.107 E.05115
G1 X102.377 Y24 E.06207
G1 X102.377 Y96 E2.25751
G1 X101.983 Y97.583 E.05115
G1 X100.893 Y98.797 E.05115
G1 X99 Y99.377 E.06207
G1 X21 Y99.377 E2.44563
G1 X19.417 Y98.983 E.05115
G1 X18.203 Y97.893 E.05115
G1 X17.623 Y96 E.06207
G1 X17.623 Y24 E2.25751
G1 X18.017 Y22.417 E.05115
G1 X19.067 Y21.248 E.04927
G1 E-1.4 F2400
;WIPE_START
G1 F7200
G1 X20.78 Y20.694 E-.57
;WIPE_END
G1 E-.03 F2400
G1 X60.635 Y66.105 F9000
G1 E2 F1800
;TYPE:Perimeter
;WIDTH:0.57238
G1 F1200
G1 X60.927 Y66.026 E.01334
;WIDTH:0.534285
G1 X61.219 Y65.947 E.01238
;WIDTH:0.49619
G1 X61.512 Y65.867 E.01142
;WIDTH:0.458095
G1 X61.804 Y65.788 E.01046
;WIDTH:0.419999
G1 X62.915 Y65.316 E.03785
G1 X63.646 Y64.843 E.02729
G1 X64.118 Y64.43 E.01966
G1 X64.751 Y63.766 E.02877
G1 X65.047 Y63.332 E.01646
;WIDTH:0.462922
G1 X65.152 Y63.202 E.00586
;WIDTH:0.505844
G1 X65.258 Y63.072 E.00646
;WIDTH:0.548766
G1 X65.364 Y62.942 E.00706
;WIDTH:0.591688
G1 X65.47 Y62.811 E.00765
G1 X65.473 Y62.98 E.00767
;WIDTH:0.548766
G1 X65.476 Y63.148 E.00707
;WIDTH:0.505844
G1 X65.479 Y63.316 E.00647
;WIDTH:0.462922
G1 X65.482 Y63.484 E.00587
;WIDTH:0.419999
G1 X65.534 Y64.036 E.0174
G1 X65.746 Y64.71 E.02214
G1 X66.057 Y65.203 E.01827
G1 X66.435 Y65.609 E.01739
G1 X66.725 Y65.832 E.0115
G1 X67.214 Y66.095 E.01739
G1 X67.469 Y66.182 E.00846
G1 X64.041 Y66.182 E.10749
G1 X61.505 Y66.182 E.07951
;WIDTH:0.458095
G1 X61.287 Y66.163 E.00754
;WIDTH:0.49619
G1 X61.07 Y66.144 E.00823
;WIDTH:0.534285
G1 X60.852 Y66.125 E.00893
;WIDTH:0.57238
G1 X60.694 Y66.111 E.00698
G1 E-1.4 F2400
;WIPE_START
G1 F7200
G1 X60.927 Y66.026 E-.07837
G1 X61.219 Y65.947 E-.09593
G1 X61.512 Y65.867 E-.09593
G1 X61.804 Y65.788 E-.09593
G1 X62.396 Y65.536 E-.20383
;WIPE_END
G1 E-.03 F2400
G1 X52.582 Y66.158 F9000
G1 E2 F1800
;WIDTH:0.419999
G1 F1200
G1 X52.873 Y66.057 E.00963
G1 X53.196 Y65.884 E.0115
G1 X53.635 Y65.545 E.01739
G1 X53.885 Y65.277 E.0115
G1 X54.244 Y64.699 E.02132
G1 X54.471 Y64.04 E.02185
G1 X54.517 Y63.578 E.01456
;WIDTH:0.468914
G1 X54.508 Y63.289 E.01025
;WIDTH:0.517829
G1 X54.498 Y62.999 E.01143
;WIDTH:0.566744
G1 X54.489 Y62.71 E.01261
G1 X54.587 Y62.827 E.00663
;WIDTH:0.517829
G1 X54.685 Y62.943 E.00601
;WIDTH:0.468914
G1 X54.783 Y63.06 E.00539
;WIDTH:0.419999
G1 X55.271 Y63.794 E.02764
G1 X55.7 Y64.256 E.01977
G1 X56.117 Y64.656 E.0181
G1 X57.116 Y65.333 E.03785
G1 X58.23 Y65.798 E.03785
;WIDTH:0.468024
G1 X58.437 Y65.87 E.00774
;WIDTH:0.516049
G1 X58.644 Y65.942 E.00861
;WIDTH:0.564074
G1 X58.851 Y66.014 E.00949
;WIDTH:0.612098
G1 X59.057 Y66.086 E.01036
G1 X58.84 Y66.11 E.01036
;WIDTH:0.564074
G1 X58.622 Y66.134 E.00949
;WIDTH:0.516049
G1 X58.405 Y66.158 E.00861
;WIDTH:0.468024
G1 X58.187 Y66.182 E.00774
;WIDTH:0.419999
G1 X52.512 Y66.182 E.17792
G1 X52.526 Y66.177 E.00043
G1 E-1.4 F2400
;WIPE_START
G1 F7200
G1 X52.873 Y66.057 E-.11631
G1 X53.196 Y65.884 E-.11614
G1 X53.635 Y65.545 E-.17567
G1 X53.885 Y65.277 E-.11613
G1 X53.961 Y65.154 E-.04576
;WIPE_END
G1 E-.03 F2400
G1 X54.466 Y57.375 F9000
G1 E2 F1800
;WIDTH:0.577156
G1 F1200
G1 X54.479 Y57.16 E.00955
;WIDTH:0.537867
G1 X54.492 Y56.946 E.00885
;WIDTH:0.498578
G1 X54.505 Y56.731 E.00815
;WIDTH:0.459289
G1 X54.518 Y56.516 E.00744
;WIDTH:0.419999
G1 X54.423 Y55.8 E.02265
G1 X54.254 Y55.29 E.01686
G1 X53.943 Y54.797 E.01826
G1 X53.565 Y54.392 E.01739
G1 X53.275 Y54.168 E.0115
G1 X52.786 Y53.905 E.01739
G1 X52.531 Y53.818 E.00846
G1 X57.565 Y53.818 E.15785
G1 X58.182 Y53.801 E.01934
;WIDTH:0.385044
G1 X58.799 Y53.783 E.01755
;WIDTH:0.350088
G1 X59.349 Y53.768 E.01405
;WIDTH:0.319989
G1 X59.899 Y53.753 E.01268
;WIDTH:0.307642
G1 X60.635 Y53.762 E.0162
;WIDTH:0.344398
G1 X61.049 Y53.781 E.0104
;WIDTH:0.381154
G1 X61.464 Y53.799 E.01167
;WIDTH:0.417909
G1 X61.878 Y53.817 E.01294
;WIDTH:0.419999
G1 X67.488 Y53.818 E.17587
G1 X67.127 Y53.943 E.01195
G1 X66.804 Y54.116 E.0115
G1 X66.365 Y54.455 E.01739
G1 X66.115 Y54.723 E.0115
G1 X65.774 Y55.262 E.01998
G1 X65.546 Y55.865 E.02021
G1 X65.483 Y56.422 E.01758
;WIDTH:0.461708
G1 X65.482 Y56.621 E.00693
;WIDTH:0.503417
G1 X65.481 Y56.82 E.00762
;WIDTH:0.545126
G1 X65.481 Y57.019 E.00831
;WIDTH:0.586834
G1 X65.48 Y57.218 E.009
G1 X65.421 Y57.143 E.00431
;WIDTH:0.546988
G1 X65.363 Y57.068 E.00399
;WIDTH:0.507142
G1 X65.166 Y56.811 E.01248
;WIDTH:0.463571
G1 X64.969 Y56.554 E.01131
;WIDTH:0.419999
G1 X64.534 Y55.975 E.02272
G1 X64.124 Y55.576 E.01793
G1 X63.646 Y55.157 E.01993
G1 X62.614 Y54.53 E.03785
G1 X61.804 Y54.213 E.0273
;WIDTH:0.417909
G1 X61.476 Y54.139 E.01049
;WIDTH:0.38381
G1 X60.917 Y54.073 E.01595
;WIDTH:0.339074
G1 X60.358 Y54.007 E.01385
;WIDTH:0.296735
G1 X59.659 Y54.009 E.01475
;WIDTH:0.33141
G1 X59.269 Y54.053 E.00941
;WIDTH:0.366084
G1 X58.88 Y54.096 E.01054
;WIDTH:0.400758
G1 X58.49 Y54.139 E.01167
;WIDTH:0.419999
G1 X57.662 Y54.407 E.0273
G1 X57.354 Y54.546 E.01059
G1 X56.325 Y55.178 E.03785
G1 X55.673 Y55.754 E.02729
G1 X55.341 Y56.137 E.01589
G1 X54.755 Y56.955 E.03154
;WIDTH:0.459289
G1 X54.683 Y57.06 E.00441
;WIDTH:0.498578
G1 X54.61 Y57.165 E.00483
;WIDTH:0.537867
G1 X54.538 Y57.27 E.00525
;WIDTH:0.577156
G1 X54.5 Y57.325 E.003
G1 X55.119 Y57.112 F9000
;WIDTH:0.419999
G1 F1200
G1 X55.218 Y56.924 E.00666
G1 X55.743 Y56.23 E.0273
G1 X56.575 Y55.461 E.0355
G1 X57.542 Y54.872 E.0355
G1 X58.607 Y54.487 E.0355
G1 X59.699 Y54.322 E.03462
G1 X60.352 Y54.321 E.02048
G1 X61.413 Y54.492 E.0337
G1 X62.477 Y54.881 E.0355
G1 X63.442 Y55.474 E.0355
G1 X63.861 Y55.846 E.01758
G1 X64.27 Y56.245 E.01793
G1 X64.658 Y56.767 E.02037
G1 X64.994 Y57.271 E.01901
G1 X65.392 Y58.196 E.03156
G1 X65.579 Y58.984 E.0254
G1 X65.67 Y59.565 E.01843
G1 X65.67 Y60.435 E.0273
G1 X65.579 Y61.016 E.01843
G1 X65.471 Y61.55 E.01708
G1 X65.12 Y62.45 E.0303
G1 X64.93 Y62.834 E.01343
G1 X64.386 Y63.626 E.03012
G1 X63.855 Y64.16 E.02362
G1 X63.442 Y64.527 E.0173
G1 X62.71 Y64.999 E.02729
G1 X61.666 Y65.437 E.0355
G1 X60.556 Y65.659 E.0355
G1 X59.424 Y65.657 E.0355
G1 X58.314 Y65.431 E.0355
G1 X57.271 Y64.989 E.0355
G1 X56.337 Y64.349 E.0355
G1 X55.977 Y64 E.01575
G1 X55.548 Y63.537 E.01977
G1 X55.105 Y62.863 E.02529
G1 X54.823 Y62.352 E.01829
G1 X54.523 Y61.53 E.02744
G1 X54.353 Y60.577 E.03036
G1 X54.316 Y60.152 E.01337
G1 X54.359 Y59.283 E.0273
G1 X54.513 Y58.572 E.02279
G1 X54.653 Y58.049 E.01698
G1 X55.091 Y57.165 E.03094
G1 X55.494 Y57.21 F9000
G1 F1200
G1 X55.942 Y56.592 E.02391
G1 X56.172 Y56.32 E.01118
G1 X56.824 Y55.744 E.02729
G1 X57.731 Y55.199 E.03316
G1 X58.727 Y54.844 E.03316
G1 X59.746 Y54.697 E.03229
G1 X60.345 Y54.698 E.01877
G1 X61.348 Y54.863 E.03187
G1 X62.339 Y55.232 E.03316
G1 X63.237 Y55.79 E.03316
G1 X63.801 Y56.314 E.02411
G1 X64.14 Y56.676 E.01557
G1 X64.618 Y57.378 E.02664
G1 X65.045 Y58.342 E.03305
G1 X65.209 Y59.059 E.02305
G1 X65.293 Y59.565 E.01608
G1 X65.293 Y60.435 E.0273
G1 X65.101 Y61.475 E.03316
G1 X64.772 Y62.304 E.02795
G1 X64.618 Y62.622 E.01108
G1 X64.09 Y63.393 E.02931
G1 X63.591 Y63.89 E.02208
G1 X63.237 Y64.21 E.01495
G1 X62.506 Y64.682 E.02729
G1 X61.528 Y65.086 E.03316
G1 X60.49 Y65.288 E.03316
G1 X59.433 Y65.28 E.03316
G1 X58.398 Y65.063 E.03316
G1 X57.426 Y64.645 E.03316
G1 X56.557 Y64.043 E.03316
G1 X55.824 Y63.281 E.03316
G1 X55.427 Y62.666 E.02295
G1 X55.177 Y62.222 E.01598
G1 X54.878 Y61.401 E.0274
G1 X54.726 Y60.521 E.02802
G1 X54.692 Y60.171 E.01101
G1 X54.736 Y59.301 E.0273
G1 X55.007 Y58.179 E.0362
G1 X55.459 Y57.258 E.03216
G1 X55.799 Y57.423 F9000
G1 F1200
G1 X56.242 Y56.82 E.02346
G1 X56.592 Y56.452 E.01593
G1 X57.074 Y56.026 E.02014
G1 X57.919 Y55.525 E.03081
G1 X58.847 Y55.202 E.03081
G1 X59.794 Y55.071 E.02996
G1 X60.338 Y55.075 E.01705
G1 X61.282 Y55.235 E.03004
G1 X62.201 Y55.583 E.03081
G1 X63.033 Y56.107 E.03081
G1 X63.537 Y56.584 E.02176
G1 X63.828 Y56.889 E.01322
G1 X64.307 Y57.591 E.02664
G1 X64.697 Y58.489 E.0307
G1 X64.916 Y59.565 E.03443
G1 X64.916 Y60.435 E.0273
G1 X64.697 Y61.512 E.03443
G1 X64.36 Y62.31 E.02718
G1 X63.793 Y63.16 E.03202
G1 X63.033 Y63.893 E.03313
G1 X62.301 Y64.365 E.02729
G1 X61.391 Y64.735 E.03081
G1 X60.425 Y64.916 E.03081
G1 X59.442 Y64.903 E.03081
G1 X58.482 Y64.695 E.03081
G1 X57.582 Y64.301 E.03081
G1 X56.777 Y63.737 E.03081
G1 X56.101 Y63.024 E.03081
G1 X55.53 Y62.09 E.03432
G1 X55.232 Y61.272 E.0273
G1 X55.069 Y60.19 E.03432
G1 X55.112 Y59.32 E.0273
G1 X55.382 Y58.259 E.03432
G1 X55.763 Y57.471 E.02745
G1 X56.1 Y57.639 F9000
;TYPE:External perimeter
G1 F1200
G1 X56.543 Y57.048 E.02316
G1 X56.842 Y56.734 E.01358
G1 X57.323 Y56.309 E.02014
G1 X58.108 Y55.852 E.02847
G1 X58.967 Y55.559 E.02847
G1 X59.841 Y55.445 E.02764
G1 X60.359 Y55.455 E.01625
G1 X61.217 Y55.606 E.0273
G1 X62.063 Y55.934 E.02847
G1 X62.828 Y56.424 E.02847
G1 X63.516 Y57.101 E.03028
G1 X63.995 Y57.803 E.02664
G1 X64.35 Y58.635 E.02836
G1 X64.538 Y59.565 E.02975
G1 X64.538 Y60.435 E.0273
G1 X64.382 Y61.227 E.02531
G1 X64.078 Y62.011 E.02636
G1 X63.8 Y62.483 E.01715
G1 X63.497 Y62.927 E.01686
G1 X62.828 Y63.576 E.02924
G1 X62.097 Y64.049 E.02729
G1 X61.253 Y64.384 E.02847
G1 X60.359 Y64.545 E.02847
G1 X59.452 Y64.526 E.02847
G1 X58.566 Y64.328 E.02847
G1 X57.737 Y63.958 E.02847
G1 X56.997 Y63.431 E.02847
G1 X56.377 Y62.768 E.02847
G1 X55.884 Y61.961 E.02964
G1 X55.586 Y61.143 E.0273
G1 X55.472 Y60.408 E.02332
G1 X55.463 Y59.857 E.0173
G1 X55.489 Y59.339 E.01625
G1 X55.722 Y58.423 E.02964
G1 X56.074 Y57.693 E.02541
G1 X55.907 Y57.288 F9000
G1 E-1.4 F2400
;WIPE_START
G1 F7200
G1 X56.543 Y57.048 E-.25255
G1 X56.842 Y56.734 E-.1371
G1 X57.269 Y56.357 E-.18034
;WIPE_END
G1 E-.03 F2400
G1 X60.635 Y66.105 F9000
G1 E2 F1800
;TYPE:Perimeter
;WIDTH:0.57238
G1 F1200
G1 X59.412 Y66.108 E.05381
;WIDTH:0.612098
G1 X59.057 Y66.086 E.01683
G1 E-1.4 F2400
;WIPE_START
G1 F7200
G1 X59.412 Y66.108 E-.11258
G1 X60.635 Y66.105 E-.38707
;WIPE_END
G1 E-.10035 F2400
G1 X64.041 Y84.818 F9000
G1 E2 F1800
;WIDTH:0.419999
G1 F1200
G1 X32.996 Y84.818 E.9734
G1 X32.396 Y84.77 E.01887
G1 X31.641 Y84.558 E.0246
G1 X31.201 Y84.358 E.01514
G1 X30.693 Y84.031 E.01894
G1 X30.328 Y83.715 E.01514
G1 X29.933 Y83.258 E.01894
G1 X29.672 Y82.852 E.01514
G1 X29.421 Y82.303 E.01894
G1 X29.285 Y81.84 E.01512
G1 X29.182 Y81.004 E.0264
G1 X29.182 Y69.996 E.34517
G1 X29.272 Y69.22 E.02448
G1 X29.442 Y68.641 E.01894
G1 X29.642 Y68.201 E.01514
G1 X29.969 Y67.693 E.01894
G1 X30.285 Y67.328 E.01514
G1 X30.742 Y66.933 E.01893
G1 X31.148 Y66.672 E.01514
G1 X31.697 Y66.421 E.01894
G1 X32.217 Y66.277 E.0169
G1 X32.367 Y66.255 E.00477
G1 X31.672 Y66.067 E.02257
G1 X31.205 Y65.86 E.01603
G1 X30.693 Y65.531 E.01907
G1 X30.328 Y65.215 E.01514
G1 X29.933 Y64.758 E.01894
G1 X29.672 Y64.352 E.01514
G1 X29.421 Y63.803 E.01894
G1 X29.285 Y63.34 E.01512
G1 X29.182 Y62.504 E.0264
G1 X29.182 Y57.496 E.15704
G1 X29.272 Y56.72 E.02448
G1 X29.442 Y56.141 E.01894
G1 X29.642 Y55.701 E.01514
G1 X29.969 Y55.193 E.01894
G1 X30.285 Y54.828 E.01514
G1 X30.742 Y54.433 E.01894
G1 X31.148 Y54.172 E.01514
G1 X31.697 Y53.921 E.01894
G1 X32.217 Y53.777 E.0169
G1 X32.367 Y53.755 E.00477
G1 X31.672 Y53.567 E.02257
G1 X31.205 Y53.36 E.01603
G1 X30.693 Y53.031 E.01908
G1 X30.328 Y52.715 E.01514
G1 X29.933 Y52.258 E.01894
G1 X29.672 Y51.852 E.01514
G1 X29.421 Y51.303 E.01894
G1 X29.285 Y50.84 E.01512
G1 X29.199 Y50.247 E.0188
G1 X29.182 Y50.004 E.00762
G1 X29.182 Y38.996 E.34517
G1 X29.272 Y38.22 E.02448
G1 X29.442 Y37.641 E.01894
G1 X29.642 Y37.201 E.01514
G1 X29.969 Y36.693 E.01894
G1 X30.285 Y36.328 E.01514
G1 X30.742 Y35.933 E.01894
G1 X31.148 Y35.672 E.01514
G1 X31.697 Y35.421 E.01894
G1 X32.16 Y35.285 E.01512
G1 X32.996 Y35.182 E.0264
G1 X87.004 Y35.182 E1.6934
G1 X87.604 Y35.23 E.01887
G1 X88.359 Y35.442 E.0246
G1 X88.799 Y35.642 E.01514
G1 X89.307 Y35.969 E.01894
G1 X89.672 Y36.285 E.01514
G1 X90.067 Y36.742 E.01894
G1 X90.328 Y37.148 E.01514
G1 X90.579 Y37.697 E.01894
G1 X90.715 Y38.16 E.01512
G1 X90.818 Y38.996 E.0264
G1 X90.818 Y50.004 E.34517
G1 X90.772 Y50.595 E.01858
G1 X90.558 Y51.359 E.02488
G1 X90.358 Y51.799 E.01514
G1 X90.031 Y52.307 E.01894
G1 X89.715 Y52.672 E.01514
G1 X89.258 Y53.067 E.01894
G1 X88.852 Y53.328 E.01514
G1 X88.303 Y53.579 E.01894
G1 X87.783 Y53.723 E.0169
G1 X87.633 Y53.745 E.00477
G1 X88.328 Y53.933 E.02257
G1 X88.795 Y54.14 E.01603
G1 X89.307 Y54.469 E.01908
G1 X89.672 Y54.785 E.01514
G1 X90.067 Y55.242 E.01894
G1 X90.328 Y55.648 E.01514
G1 X90.579 Y56.197 E.01894
G1 X90.715 Y56.66 E.01512
G1 X90.818 Y57.496 E.0264
G1 X90.818 Y62.504 E.15704
G1 X90.772 Y63.095 E.01858
G1 X90.558 Y63.859 E.02488
G1 X90.358 Y64.299 E.01514
G1 X90.031 Y64.807 E.01894
G1 X89.715 Y65.172 E.01514
G1 X89.258 Y65.567 E.01894
G1 X88.852 Y65.828 E.01514
G1 X88.303 Y66.079 E.01893
G1 X87.783 Y66.223 E.0169
G1 X87.633 Y66.245 E.00477
G1 X88.328 Y66.433 E.02257
G1 X88.795 Y66.64 E.01603
G1 X89.307 Y66.969 E.01908
G1 X89.672 Y67.285 E.01514
G1 X90.067 Y67.742 E.01894
G1 X90.328 Y68.148 E.01514
G1 X90.579 Y68.697 E.01894
G1 X90.715 Y69.16 E.01512
G1 X90.818 Y69.996 E.0264
G1 X90.818 Y81.004 E.34517
G1 X90.772 Y81.595 E.01858
G1 X90.558 Y82.359 E.02488
G1 X90.358 Y82.799 E.01514
G1 X90.031 Y83.307 E.01894
G1 X89.715 Y83.672 E.01514
G1 X89.258 Y84.067 E.01894
G1 X88.852 Y84.328 E.01514
G1 X88.303 Y84.579 E.01894
G1 X87.84 Y84.715 E.01512
G1 X87.247 Y84.801 E.0188
G1 X87.004 Y84.818 E.00762
G1 X64.101 Y84.818 E.71812
G1 E-1.4 F2400
;WIPE_START
G1 F7200
G1 X62.301 Y84.818 E-.57
;WIPE_END
G1 E-.03 F2400
G1 X67.669 Y65.864 F9000
G1 E2 F1800
;WIDTH:0.506881
G1 F1200
G1 X67.555 Y65.821 E.00468
;WIDTH:0.46344
G1 X67.335 Y65.738 E.00821
;WIDTH:0.419999
G1 X66.955 Y65.534 E.01353
G1 X66.665 Y65.31 E.0115
G1 X66.371 Y64.994 E.01353
G1 X66.084 Y64.543 E.01676
G1 X65.898 Y63.94 E.01977
G1 X65.858 Y63.511 E.01353
G1 X65.919 Y62.922 E.01854
G1 X66.204 Y62.125 E.02655
G1 X66.351 Y61.633 E.01607
G1 X66.5 Y60.846 E.02513
G1 X66.552 Y60.254 E.01863
G1 X66.552 Y59.746 E.01593
G1 X66.5 Y59.154 E.01863
G1 X66.351 Y58.367 E.02513
G1 X66.204 Y57.875 E.01607
G1 X65.962 Y57.218 E.02198
G1 X65.868 Y56.781 E.014
G1 X65.893 Y56.092 E.02162
G1 X66.002 Y55.675 E.01353
G1 X66.152 Y55.34 E.0115
G1 X66.391 Y54.98 E.01353
G1 X66.641 Y54.712 E.0115
G1 X66.983 Y54.449 E.01353
;WIDTH:0.460638
G1 X67.159 Y54.351 E.007
;WIDTH:0.501276
G1 X67.335 Y54.253 E.00768
;WIDTH:0.541914
G1 X67.511 Y54.156 E.00836
;WIDTH:0.582552
G1 X67.688 Y54.058 E.00904
G1 X68.287 Y53.999 E.027
;WIDTH:0.540223
G1 X87.004 Y53.999 E.774
G1 X87.227 Y54.044 E.00941
;WIDTH:0.500149
G1 X87.451 Y54.089 E.00865
;WIDTH:0.460074
G1 X87.674 Y54.134 E.0079
;WIDTH:0.419999
G1 X88.253 Y54.304 E.01894
G1 X88.595 Y54.46 E.01178
G1 X89.103 Y54.786 E.01894
G1 X89.387 Y55.032 E.01178
G1 X89.782 Y55.489 E.01894
G1 X89.985 Y55.805 E.01178
G1 X90.236 Y56.354 E.01894
G1 X90.342 Y56.714 E.01176
G1 X90.441 Y57.496 E.02471
G1 X90.441 Y62.504 E.15704
G1 X90.4 Y63.03 E.01653
G1 X90.196 Y63.753 E.02356
G1 X90.04 Y64.095 E.01178
G1 X89.714 Y64.603 E.01894
G1 X89.468 Y64.887 E.01178
G1 X89.011 Y65.282 E.01894
G1 X88.695 Y65.485 E.01178
G1 X88.146 Y65.736 E.01894
;WIDTH:0.451126
G1 X87.374 Y65.917 E.02692
;WIDTH:0.495675
G1 X87.189 Y65.959 E.00713
;WIDTH:0.540223
G1 X87.004 Y66.001 E.00783
G1 X68.287 Y66.001 E.774
;WIDTH:0.550321
