; generated by PrusaSlicer 2.5.0+win64 on 2023-01-24 at 14:36:06 UTC


;
;

;
;
; 

; external perimeters extrusion width = 0.42mm
; perimeters extrusion width = 0.44mm
; infill extrusion width = 0.44mm
; solid infill extrusion width = 0.44mm
; top infill extrusion width = 0.40mm
; first layer extrusion width = 0.42mm

M107
M104 S200 ; set temperature
;TYPE:Custom
; You can use following code instead if your PRINT_START macro support Chamber and print area bedmesh
PRINT_START EXTRUDER=200
M109 S200 ; set temperature and wait for it to be reached
G21 ; set units to millimeters
G90 ; use absolute coordinates
M83 ; use relative distances for extrusion
; Filament gcode
M107
;LAYER_CHANGE
;Z:0.2
;HEIGHT:0.2
;BEFORE_LAYER_CHANGE
G92 E0
;0.2


G1 E-2 F2400
G1 Z.2 F9000
;AFTER_LAYER_CHANGE
;0.2
G1 X51.37 Y51.344
G1 E2 F1800
M204 S500
;TYPE:Skirt/Brim
;WIDTH:0.42
G1 F1200
G1 X53.629 Y50.589 E.07467
G1 X65.657 Y50.589 E.37715
G1 X67.333 Y50.983 E.05397
G1 X68.656 Y52.084 E.05397
G1 X69.411 Y54.343 E.07467
G1 X69.411 Y66.371 E.37715
G1 X69.017 Y68.047 E.05397
G1 X67.916 Y69.37 E.05397
G1 X65.657 Y70.126 E.07467
G1 X53.629 Y70.126 E.37715
G1 X51.953 Y69.731 E.05397
G1 X50.63 Y68.63 E.05397
G1 X49.874 Y66.371 E.07467
G1 X49.874 Y54.343 E.37715
G1 X50.269 Y52.667 E.05397
G1 X51.332 Y51.39 E.05209
G1 X51.633 Y51.661 F9000
G1 F1200
G1 X51.736 Y51.546 E.00483
G1 X53.629 Y50.966 E.06207
G1 X65.657 Y50.966 E.37715
G1 X67.24 Y51.36 E.05115
G1 X68.454 Y52.45 E.05115
G1 X69.034 Y54.343 E.06207
G1 X69.034 Y66.371 E.37715
G1 X68.64 Y67.955 E.05115
G1 X67.55 Y69.168 E.05115
G1 X65.657 Y69.749 E.06207
G1 X53.629 Y69.749 E.37715
G1 X52.045 Y69.354 E.05115
G1 X50.832 Y68.264 E.05115
G1 X50.251 Y66.371 E.06207
G1 X50.251 Y54.343 E.37715
G1 X50.646 Y52.76 E.05115
G1 X51.593 Y51.705 E.04444
G1 E-1.4 F2400
;WIPE_START
G1 F7200
G1 X51.736 Y51.546 E-.06779
G1 X53.252 Y51.081 E-.50221
;WIPE_END
G1 E-.03 F2400
G1 X54.516 Y55.23 F9000
G1 E2 F1800
;TYPE:Perimeter
;WIDTH:0.419999
G1 F1200
G1 X64.77 Y55.23 E.32152
G1 X64.77 Y65.484 E.32152
G1 X54.516 Y65.484 E.32152
G1 X54.516 Y55.29 E.31964
G1 X54.139 Y54.853 F9000
;TYPE:External perimeter
G1 F1200
G1 X65.147 Y54.853 E.34517
G1 X65.147 Y65.861 E.34517
G1 X54.139 Y65.861 E.34517
G1 X54.139 Y54.913 E.34328
G1 X54.525 Y54.956 F9000
G1 E-1.4 F2400
;WIPE_START
G1 F7200
G1 X55.939 Y54.903 E-.57
;WIPE_END
G1 E-.03 F2400
G1 X64.649 Y56.128 F9000
G1 E2 F1800
;TYPE:Solid infill
;WIDTH:0.427082
G1 F1200
G1 X64.042 Y55.52 E.02745
G1 X63.499 Y55.52 E.01735
G1 X64.48 Y56.501 E.04433
G1 X64.48 Y57.045 E.01735
G1 X62.955 Y55.52 E.06887
G1 X62.412 Y55.52 E.01735
G1 X64.48 Y57.588 E.09341
G1 X64.48 Y58.131 E.01735
G1 X61.869 Y55.52 E.11795
G1 X61.325 Y55.52 E.01735
G1 X64.48 Y58.675 E.1425
G1 X64.48 Y59.218 E.01735
G1 X60.782 Y55.52 E.16704
G1 X60.239 Y55.52 E.01735
G1 X64.48 Y59.761 E.19158
G1 X64.48 Y60.304 E.01735
G1 X59.696 Y55.52 E.21612
G1 X59.152 Y55.52 E.01735
G1 X64.48 Y60.848 E.24067
G1 X64.48 Y61.391 E.01735
G1 X58.609 Y55.52 E.26521
G1 X58.066 Y55.52 E.01735
G1 X64.48 Y61.934 E.28975
G1 X64.48 Y62.478 E.01735
G1 X57.522 Y55.52 E.3143
G1 X56.979 Y55.52 E.01735
G1 X64.48 Y63.021 E.33884
G1 X64.48 Y63.564 E.01735
G1 X56.436 Y55.52 E.36338
G1 X55.892 Y55.52 E.01735
G1 X64.48 Y64.108 E.38792
G1 X64.48 Y64.651 E.01735
G1 X55.349 Y55.52 E.41247
G1 X54.806 Y55.52 E.01735
G1 X64.48 Y65.194 E.437
G1 X63.936 Y65.194 E.01735
G1 X54.806 Y56.064 E.41246
G1 X54.806 Y56.607 E.01735
G1 X63.393 Y65.194 E.38792
G1 X62.85 Y65.194 E.01735
G1 X54.806 Y57.15 E.36338
G1 X54.806 Y57.693 E.01735
G1 X62.307 Y65.194 E.33883
G1 X61.763 Y65.194 E.01735
G1 X54.806 Y58.237 E.31429
G1 X54.806 Y58.78 E.01735
G1 X61.22 Y65.194 E.28975
G1 X60.677 Y65.194 E.01735
G1 X54.806 Y59.323 E.2652
G1 X54.806 Y59.867 E.01735
G1 X60.133 Y65.194 E.24066
G1 X59.59 Y65.194 E.01735
G1 X54.806 Y60.41 E.21612
G1 X54.806 Y60.953 E.01735
G1 X59.047 Y65.194 E.19158
G1 X58.504 Y65.194 E.01735
G1 X54.806 Y61.496 E.16703
G1 X54.806 Y62.04 E.01735
G1 X57.96 Y65.194 E.14249
G1 X57.417 Y65.194 E.01735
G1 X54.806 Y62.583 E.11795
G1 X54.806 Y63.126 E.01735
G1 X56.874 Y65.194 E.09341
G1 X56.33 Y65.194 E.01735
G1 X54.806 Y63.67 E.06886
G1 X54.806 Y64.213 E.01735
G1 X55.787 Y65.194 E.04432
G1 X55.244 Y65.194 E.01735
G1 X54.636 Y64.587 E.02744
;LAYER_CHANGE
;Z:0.4
;HEIGHT:0.2
;BEFORE_LAYER_CHANGE
G92 E0
;0.4


G1 E-1.4 F2400
;WIPE_START
G1 F7200
G1 X55.244 Y65.194 E-.27205
G1 X55.787 Y65.194 E-.17204
G1 X55.506 Y64.913 E-.12591
;WIPE_END
G1 E-.03 F2400
G1 Z.4 F9000
;AFTER_LAYER_CHANGE
;0.4
G1 X55.506 Y70.126
G1 E2 F1800
;TYPE:Skirt/Brim
;WIDTH:0.42
G1 F2400
G1 X53.629 Y70.126 E.05886
G1 X51.953 Y69.731 E.05397
G1 X50.63 Y68.63 E.05397
G1 X49.874 Y66.371 E.07467
G1 X49.874 Y54.343 E.37715
G1 X50.269 Y52.667 E.05397
G1 X51.37 Y51.344 E.05397
G1 X53.629 Y50.589 E.07467
G1 X65.657 Y50.589 E.37715
G1 X67.333 Y50.983 E.05397
G1 X68.656 Y52.084 E.05397
G1 X69.411 Y54.343 E.07467
G1 X69.411 Y66.371 E.37715
G1 X69.017 Y68.047 E.05397
G1 X67.916 Y69.37 E.05397
G1 X65.657 Y70.126 E.07467
G1 X55.566 Y70.126 E.3164
G1 X55.566 Y69.749 F9000
G1 F2400
G1 X53.629 Y69.749 E.06074
G1 X52.045 Y69.354 E.05115
G1 X50.832 Y68.264 E.05115
G1 X50.251 Y66.371 E.06207
G1 X50.251 Y54.343 E.37715
G1 X50.646 Y52.76 E.05115
G1 X51.736 Y51.546 E.05115
G1 X53.629 Y50.966 E.06207
G1 X65.657 Y50.966 E.37715
G1 X67.24 Y51.36 E.05115
G1 X68.454 Y52.45 E.05115
G1 X69.034 Y54.343 E.06207
G1 X69.034 Y66.371 E.37715
G1 X68.64 Y67.955 E.05115
G1 X67.55 Y69.168 E.05115
G1 X65.657 Y69.749 E.06207
G1 X55.626 Y69.749 E.31452
G1 E-1.4
;WIPE_START
G1 F7200
G1 X53.826 Y69.749 E-.57
;WIPE_END
G1 E-.03 F2400
G1 X54.226 Y65.774 F9000
G1 E2 F1800
;TYPE:Perimeter
;WIDTH:0.439999
G1 F2400
G1 X54.226 Y54.94 E.35772
G1 X65.06 Y54.94 E.35772
G1 X65.06 Y65.774 E.35772
G1 X54.286 Y65.774 E.35574
G1 X53.839 Y66.161 F9000
;TYPE:External perimeter
;WIDTH:0.419999
G1 F1500
G1 X53.839 Y54.553 E.36398
G1 X65.447 Y54.553 E.36398
G1 X65.447 Y66.161 E.36398
G1 X53.899 Y66.161 E.3621
G1 X53.942 Y65.775 F9000
G1 E-1.4 F2400
;WIPE_START
G1 F7200
G1 X53.889 Y64.361 E-.57
;WIPE_END
G1 E-.03 F2400
G1 X64.112 Y65.647 F9000
G1 E2 F1800
;TYPE:Solid infill
;WIDTH:0.448837
G1 F2400
G1 X64.754 Y65.005 E.03068
G1 X64.754 Y64.43 E.01938
G1 X63.716 Y65.469 E.04955
G1 X63.142 Y65.469 E.01938
G1 X64.754 Y63.856 E.07695
G1 X64.754 Y63.282 E.01938
G1 X62.568 Y65.469 E.10435
G1 X61.994 Y65.469 E.01938
G1 X64.754 Y62.708 E.13176
G1 X64.754 Y62.134 E.01938
G1 X61.42 Y65.469 E.15916
G1 X60.846 Y65.469 E.01938
G1 X64.754 Y61.56 E.18656
G1 X64.754 Y60.986 E.01938
G1 X60.272 Y65.469 E.21396
G1 X59.698 Y65.469 E.01938
G1 X64.754 Y60.412 E.24136
G1 X64.754 Y59.838 E.01938
G1 X59.124 Y65.469 E.26876
G1 X58.55 Y65.469 E.01938
G1 X64.754 Y59.264 E.29616
G1 X64.754 Y58.69 E.01938
G1 X57.976 Y65.469 E.32356
G1 X57.402 Y65.469 E.01938
G1 X64.754 Y58.116 E.35097
G1 X64.754 Y57.542 E.01938
G1 X56.828 Y65.469 E.37837
G1 X56.253 Y65.469 E.01938
G1 X64.754 Y56.968 E.40577
G1 X64.754 Y56.394 E.01938
G1 X55.679 Y65.469 E.43317
G1 X55.105 Y65.469 E.01938
G1 X64.754 Y55.82 E.46057
G1 X64.754 Y55.246 E.01937
G1 X54.531 Y65.469 E.48797
G1 X54.531 Y64.894 E.01938
G1 X64.18 Y55.246 E.46056
G1 X63.606 Y55.246 E.01938
G1 X54.531 Y64.32 E.43316
G1 X54.531 Y63.746 E.01938
G1 X63.032 Y55.246 E.40576
G1 X62.458 Y55.246 E.01938
G1 X54.531 Y63.172 E.37836
G1 X54.531 Y62.598 E.01938
G1 X61.884 Y55.246 E.35096
G1 X61.31 Y55.246 E.01938
G1 X54.531 Y62.024 E.32356
G1 X54.531 Y61.45 E.01938
G1 X60.736 Y55.246 E.29616
G1 X60.162 Y55.246 E.01938
G1 X54.531 Y60.876 E.26876
G1 X54.531 Y60.302 E.01938
G1 X59.588 Y55.246 E.24135
G1 X59.014 Y55.246 E.01938
G1 X54.531 Y59.728 E.21395
G1 X54.531 Y59.154 E.01938
G1 X58.44 Y55.246 E.18655
G1 X57.866 Y55.246 E.01938
G1 X54.531 Y58.58 E.15915
G1 X54.531 Y58.006 E.01938
G1 X57.292 Y55.246 E.13175
G1 X56.718 Y55.246 E.01938
G1 X54.531 Y57.432 E.10435
G1 X54.531 Y56.858 E.01938
G1 X56.143 Y55.246 E.07695
G1 X55.569 Y55.246 E.01938
G1 X54.531 Y56.284 E.04955
G1 X54.531 Y55.71 E.01938
G1 X55.174 Y55.067 E.03067
;LAYER_CHANGE
;Z:0.6
;HEIGHT:0.2
;BEFORE_LAYER_CHANGE
G92 E0
;0.6


G1 E-1.4 F2400
;WIPE_START
G1 F7200
G1 X54.531 Y55.71 E-.2878
G1 X54.531 Y56.284 E-.18178
G1 X54.756 Y56.059 E-.10042
;WIPE_END
G1 E-.03 F2400
G1 Z.6 F9000
;AFTER_LAYER_CHANGE
;0.6
G1 X65.26 Y60.357
G1 E2 F1800
;TYPE:Perimeter
;WIDTH:0.439999
G1 F2400
G1 X65.26 Y65.974 E.18546
G1 X54.026 Y65.974 E.37093
G1 X54.026 Y54.74 E.37093
G1 X65.26 Y54.74 E.37093
G1 X65.26 Y60.297 E.18348
G1 X65.647 Y60.357 F9000
;TYPE:External perimeter
;WIDTH:0.419999
G1 F1500
G1 X65.647 Y66.361 E.18826
G1 X53.639 Y66.361 E.37652
G1 X53.639 Y54.353 E.37652
G1 X65.647 Y54.353 E.37652
G1 X65.647 Y60.297 E.18638
G1 X65.396 Y60.669 F9000
G1 E-1.4 F2400
;WIPE_START
G1 F7200
G1 X65.647 Y62.097 E-.57
;WIPE_END
G1 E-.03 F2400
G1 X65.133 Y55.675 F9000
G1 E2 F1800
;TYPE:Solid infill
;WIDTH:0.442525
G1 F2400
G1 X64.504 Y55.046 E.02957
G1 X63.939 Y55.046 E.01878
G1 X64.954 Y56.061 E.04773
G1 X64.954 Y56.627 E.01878
G1 X63.373 Y55.046 E.07429
G1 X62.808 Y55.046 E.01878
G1 X64.954 Y57.192 E.10084
G1 X64.954 Y57.757 E.01878
G1 X62.243 Y55.046 E.1274
G1 X61.678 Y55.046 E.01878
G1 X64.954 Y58.322 E.15396
G1 X64.954 Y58.887 E.01878
G1 X61.113 Y55.046 E.18051
G1 X60.548 Y55.046 E.01878
G1 X64.954 Y59.452 E.20707
G1 X64.954 Y60.017 E.01878
G1 X59.983 Y55.046 E.23362
G1 X59.417 Y55.046 E.01878
G1 X64.954 Y60.583 E.26018
G1 X64.954 Y61.148 E.01878
G1 X58.852 Y55.046 E.28673
G1 X58.287 Y55.046 E.01878
G1 X64.954 Y61.713 E.31329
G1 X64.954 Y62.278 E.01878
G1 X57.722 Y55.046 E.33984
G1 X57.157 Y55.046 E.01878
G1 X64.954 Y62.843 E.3664
G1 X64.954 Y63.408 E.01878
G1 X56.592 Y55.046 E.39296
G1 X56.027 Y55.046 E.01878
G1 X64.954 Y63.973 E.41951
G1 X64.954 Y64.538 E.01878
G1 X55.462 Y55.046 E.44607
G1 X54.896 Y55.046 E.01878
G1 X64.954 Y65.104 E.47262
G1 X64.954 Y65.669 E.01878
G1 X54.331 Y55.046 E.49917
G1 X54.331 Y55.611 E.01878
G1 X64.389 Y65.669 E.47262
G1 X63.824 Y65.669 E.01878
G1 X54.331 Y56.176 E.44606
G1 X54.331 Y56.741 E.01878
G1 X63.259 Y65.669 E.41951
G1 X62.694 Y65.669 E.01878
G1 X54.331 Y57.306 E.39295
G1 X54.331 Y57.871 E.01878
G1 X62.129 Y65.669 E.3664
G1 X61.564 Y65.669 E.01878
G1 X54.331 Y58.436 E.33984
G1 X54.331 Y59.002 E.01878
G1 X60.998 Y65.669 E.31328
G1 X60.433 Y65.669 E.01878
G1 X54.331 Y59.567 E.28673
G1 X54.331 Y60.132 E.01878
G1 X59.868 Y65.669 E.26017
G1 X59.303 Y65.669 E.01878
G1 X54.331 Y60.697 E.23362
G1 X54.331 Y61.262 E.01878
G1 X58.738 Y65.669 E.20706
G1 X58.173 Y65.669 E.01878
G1 X54.331 Y61.827 E.18051
G1 X54.331 Y62.392 E.01878
G1 X57.608 Y65.669 E.15395
G1 X57.042 Y65.669 E.01878
G1 X54.331 Y62.958 E.1274
G1 X54.331 Y63.523 E.01878
G1 X56.477 Y65.669 E.10084
G1 X55.912 Y65.669 E.01878
G1 X54.331 Y64.088 E.07428
G1 X54.331 Y64.653 E.01878
G1 X55.347 Y65.669 E.04773
G1 X54.782 Y65.669 E.01878
G1 X54.153 Y65.039 E.02957
M106 S252.45
;LAYER_CHANGE
;Z:0.8
;HEIGHT:0.2
;BEFORE_LAYER_CHANGE
G92 E0
;0.8


G1 E-1.4 F2400
;WIPE_START
G1 F7200
G1 X54.782 Y65.669 E-.28181
G1 X55.347 Y65.669 E-.17896
G1 X55.103 Y65.425 E-.10923
;WIPE_END
G1 E-.03 F2400
G1 Z.8 F9000
;AFTER_LAYER_CHANGE
;0.8
G1 X53.826 Y66.174
G1 E2 F1800
;TYPE:Perimeter
;WIDTH:0.439999
G1 F2214
G1 X53.826 Y54.54 E.38414
G1 X65.46 Y54.54 E.38414
G1 X65.46 Y66.174 E.38414
G1 X53.886 Y66.174 E.38216
G1 X53.439 Y66.561 F9000
;TYPE:External perimeter
;WIDTH:0.419999
G1 F1500
G1 X53.439 Y54.153 E.38906
G1 X65.847 Y54.153 E.38906
G1 X65.847 Y66.561 E.38906
G1 X53.499 Y66.561 E.38718
G1 X53.542 Y66.175 F9000
G1 E-1.4 F2400
;WIPE_START
G1 F7200
G1 X53.49 Y64.761 E-.57
;WIPE_END
G1 E-.03 F2400
G1 X54.131 Y62.681 F9000
G1 E2 F1800
;TYPE:Internal infill
;WIDTH:0.44
G1 F2214
G1 X54.131 Y60.298 E.07866
G1 X54.48 Y60 E.01513
G1 X54.866 Y59.601 E.01834
G1 X55.145 Y59.201 E.01609
G1 X55.417 Y58.402 E.02786
G1 X55.436 Y57.603 E.02638
G1 X55.288 Y56.805 E.02683
G1 X54.978 Y56.006 E.02828
G1 X54.527 Y55.31 E.02737
G1 X54.857 Y54.98 E.01541
G1 X54.801 Y54.846 E.00482
G1 X61.684 Y54.846 E.22726
G1 X61.807 Y55.207 E.0126
G1 X61.827 Y56.006 E.02638
G1 X61.678 Y56.805 E.02683
G1 X61.369 Y57.603 E.02828
G1 X60.851 Y58.402 E.03144
G1 X60.063 Y59.201 E.03705
G1 X59.13 Y60 E.04055
G1 X58.744 Y60.399 E.01834
G1 X58.465 Y60.799 E.01609
G1 X58.193 Y61.598 E.02786
G1 X58.173 Y62.397 E.02638
G1 X58.322 Y63.195 E.02683
G1 X58.631 Y63.994 E.02828
G1 X59.149 Y64.793 E.03144
G1 X59.937 Y65.592 E.03705
G1 X60.261 Y65.869 E.01405
G1 X64.484 Y65.869 E.13946
G1 X64.428 Y65.734 E.00482
G1 X64.783 Y65.379 E.01655
G1 X64.583 Y64.793 E.02045
G1 X64.564 Y63.994 E.02638
G1 X64.712 Y63.195 E.02683
G1 X65.022 Y62.397 E.02828
G1 X65.154 Y62.187 E.0082
G1 X65.154 Y59.804 E.07866
G1 E-1.4 F2400
;WIPE_START
G1 F7200
G1 X65.154 Y61.604 E-.57
;WIPE_END
G1 E-.03 F2400
G1 X54.509 Y54.711 F9000
G1 E2 F1800
;TYPE:Solid infill
;WIDTH:0.519415
G1 F2214
G1 X53.996 Y55.223 E.02873
;LAYER_CHANGE
;Z:1
;HEIGHT:0.2
;BEFORE_LAYER_CHANGE
G92 E0
;1


G1 E-1.4 F2400
;WIPE_START
G1 F7200
G1 X54.509 Y54.711 E-.22959
;WIPE_END
G1 E-.37041 F2400
G1 Z1 F9000
;AFTER_LAYER_CHANGE
;1
G1 X53.626 Y66.374
G1 E2 F1800
;TYPE:Perimeter
;WIDTH:0.439999
G1 F2206
G1 X53.626 Y54.34 E.39734
G1 X65.66 Y54.34 E.39734
G1 X65.66 Y66.374 E.39734
G1 X53.686 Y66.374 E.39536
G1 X53.239 Y66.761 F9000
;TYPE:External perimeter
;WIDTH:0.419999
G1 F1500
G1 X53.239 Y53.953 E.4016
G1 X66.047 Y53.953 E.4016
G1 X66.047 Y66.761 E.4016
G1 X53.299 Y66.761 E.39972
G1 X53.342 Y66.375 F9000
G1 X53.796 Y65.691
;TYPE:Solid infill
;WIDTH:0.519415
G1 F2206
G1 X54.309 Y66.204 E.02873
G1 E-1.4 F2400
;WIPE_START
G1 F7200
G1 X53.796 Y65.691 E-.22959
;WIPE_END
G1 E-.37041 F2400
G1 X53.931 Y63.028 F9000
G1 E2 F1800
;TYPE:Internal infill
;WIDTH:0.44
G1 F2206
G1 X53.931 Y60.645 E.07866
G1 X54.759 Y60 E.03464
G1 X55.148 Y59.601 E.0184
G1 X55.401 Y59.201 E.01561
G1 X55.594 Y58.402 E.02714
G1 X55.543 Y57.603 E.02643
G1 X55.335 Y56.805 E.02726
G1 X54.966 Y56.006 E.02905
G1 X54.375 Y55.207 E.03282
G1 X54.299 Y55.139 E.00336
G1 X54.657 Y54.78 E.01674
G1 X54.601 Y54.646 E.00482
G1 X61.849 Y54.646 E.23929
G1 X61.985 Y55.207 E.01907
G1 X61.934 Y56.006 E.02643
G1 X61.726 Y56.805 E.02726
G1 X61.357 Y57.603 E.02905
G1 X60.765 Y58.402 E.03282
G1 X59.875 Y59.201 E.03949
G1 X58.851 Y60 E.04289
G1 X58.462 Y60.399 E.0184
G1 X58.209 Y60.799 E.01561
G1 X58.015 Y61.598 E.02714
G1 X58.066 Y62.397 E.02643
G1 X58.274 Y63.195 E.02726
G1 X58.643 Y63.994 E.02905
G1 X59.235 Y64.793 E.03282
G1 X60.125 Y65.592 E.03949
G1 X60.736 Y66.069 E.0256
G1 X64.684 Y66.069 E.13035
G1 X64.628 Y65.934 E.00482
G1 X64.743 Y65.819 E.00536
G1 X64.6 Y65.592 E.00888
G1 X64.406 Y64.793 E.02714
G1 X64.457 Y63.994 E.02643
G1 X64.665 Y63.195 E.02726
G1 X65.034 Y62.397 E.02905
G1 X65.354 Y61.877 E.02015
G1 X65.354 Y59.495 E.07866
;LAYER_CHANGE
;Z:1.2
;HEIGHT:0.2
;BEFORE_LAYER_CHANGE
G92 E0
;1.2


G1 E-1.4 F2400
;WIPE_START
G1 F7200
G1 X65.354 Y61.295 E-.57
;WIPE_END
G1 E-.03 F2400
G1 Z1.2 F9000
;AFTER_LAYER_CHANGE
;1.2
G1 X53.426 Y66.574
G1 E2 F1800
;TYPE:Perimeter
;WIDTH:0.439999
G1 F2400
G1 X53.426 Y54.14 E.41055
G1 X65.86 Y54.14 E.41055
G1 X65.86 Y66.574 E.41055
G1 X53.486 Y66.574 E.40857
G1 X53.039 Y66.961 F9000
;TYPE:External perimeter
;WIDTH:0.419999
G1 F1500
G1 X53.039 Y53.753 E.41414
G1 X66.247 Y53.753 E.41414
G1 X66.247 Y66.961 E.41414
G1 X53.099 Y66.961 E.41226
G1 X53.142 Y66.575 F9000
G1 E-1.4 F2400
;WIPE_START
G1 F7200
G1 X53.09 Y65.161 E-.57
;WIPE_END
G1 E-.03 F2400
G1 X53.731 Y63.349 F9000
G1 E2 F1800
;TYPE:Internal infill
;WIDTH:0.44
G1 F2950
G1 X53.731 Y60.966 E.07866
G1 X53.945 Y60.799 E.00895
G1 X55.101 Y60 E.04641
G1 X55.489 Y59.601 E.01838
G1 X55.701 Y59.201 E.01492
G1 X55.794 Y58.402 E.02655
G1 X55.665 Y57.603 E.02672
G1 X55.394 Y56.805 E.02785
G1 X54.964 Y56.006 E.02995
G1 X54.293 Y55.207 E.03445
G1 X54.034 Y55.004 E.01088
G1 X54.457 Y54.58 E.01977
G1 X54.401 Y54.446 E.00482
G1 X62.096 Y54.446 E.25404
G1 X62.184 Y55.207 E.02531
G1 X62.055 Y56.006 E.02672
G1 X61.785 Y56.805 E.02785
G1 X61.355 Y57.603 E.02995
G1 X60.684 Y58.402 E.03445
G1 X59.664 Y59.201 E.04276
G1 X58.508 Y60 E.04641
