; generated by PrusaSlicer 2.5.0+win64 on 2023-03-05 at 11:00:43 UTC


;
;

;
;
; 

; external perimeters extrusion width = 0.42mm
; perimeters extrusion width = 0.44mm
; infill extrusion width = 0.44mm
; solid infill extrusion width = 0.44mm
; top infill extrusion width = 0.40mm
; first layer extrusion width = 0.42mm

M107
M104 S210 ; set temperature
;TYPE:Custom
; You can use following code instead if your PRINT_START macro support Chamber and print area bedmesh
PRINT_START EXTRUDER=210
M109 S210 ; set temperature and wait for it to be reached
G21 ; set units to millimeters
G90 ; use absolute coordinates
M83 ; use relative distances for extrusion
; Filament gcode
M107
;LAYER_CHANGE
;Z:0.2
;HEIGHT:0.2
;BEFORE_LAYER_CHANGE
G92 E0
;0.2


G1 E-2 F2400
G1 Z.2 F9000
;AFTER_LAYER_CHANGE
;0.2
G1 X29.213 Y29.448
G1 E2 F1800
M204 S500
;TYPE:Skirt/Brim
;WIDTH:0.42
G1 F1200
G1 X32.356 Y26.577 E.13346
G1 X35.765 Y24.029 E.13346
G1 X39.408 Y21.827 E.13346
G1 X43.249 Y19.992 E.13346
G1 X47.251 Y18.543 E.13346
G1 X51.376 Y17.493 E.13346
G1 X55.584 Y16.852 E.13346
G1 X59.834 Y16.627 E.13346
G1 X64.086 Y16.82 E.13346
G1 X68.299 Y17.428 E.13346
G1 X72.432 Y18.447 E.13346
G1 X76.445 Y19.865 E.13346
G1 X80.3 Y21.67 E.13346
G1 X83.959 Y23.845 E.13346
G1 X87.387 Y26.367 E.13346
G1 X90.552 Y29.213 E.13346
G1 X93.423 Y32.356 E.13346
G1 X95.971 Y35.765 E.13346
G1 X98.173 Y39.408 E.13346
G1 X100.008 Y43.249 E.13346
G1 X101.457 Y47.251 E.13346
G1 X102.507 Y51.376 E.13346
G1 X103.148 Y55.584 E.13346
G1 X103.373 Y59.834 E.13346
G1 X103.18 Y64.086 E.13346
G1 X102.572 Y68.299 E.13346
G1 X101.553 Y72.432 E.13346
G1 X100.135 Y76.445 E.13346
G1 X98.33 Y80.3 E.13346
G1 X96.155 Y83.959 E.13346
G1 X93.633 Y87.387 E.13346
G1 X90.787 Y90.552 E.13346
G1 X87.644 Y93.423 E.13346
G1 X84.235 Y95.971 E.13346
G1 X80.592 Y98.173 E.13346
G1 X76.751 Y100.008 E.13346
G1 X72.749 Y101.457 E.13346
G1 X68.624 Y102.507 E.13346
G1 X64.416 Y103.148 E.13346
G1 X60.166 Y103.373 E.13346
G1 X55.913 Y103.18 E.13346
G1 X51.701 Y102.572 E.13346
G1 X47.568 Y101.553 E.13346
G1 X43.555 Y100.135 E.13346
G1 X39.7 Y98.33 E.13346
G1 X36.041 Y96.155 E.13346
G1 X32.612 Y93.633 E.13346
G1 X29.448 Y90.786 E.13346
G1 X26.577 Y87.644 E.13346
G1 X24.029 Y84.234 E.13346
G1 X21.826 Y80.592 E.13346
G1 X19.992 Y76.751 E.13346
G1 X18.543 Y72.749 E.13346
G1 X17.493 Y68.624 E.13346
G1 X16.852 Y64.416 E.13346
G1 X16.627 Y60.166 E.13346
G1 X16.82 Y55.914 E.13346
G1 X17.428 Y51.701 E.13346
G1 X18.447 Y47.568 E.13346
G1 X19.865 Y43.555 E.13346
G1 X21.67 Y39.7 E.13346
G1 X23.845 Y36.041 E.13346
G1 X26.367 Y32.613 E.13346
G1 X29.173 Y29.492 E.13158
G1 E-1.4 F2400
;WIPE_START
G1 F7200
G1 X30.501 Y28.277 E-.57
;WIPE_END
G1 E-.03 F2400
G1 X33.27 Y33.27 F9000
G1 E2 F1800
;TYPE:Perimeter
;WIDTH:0.419999
G1 F1200
G1 X36.019 Y30.779 E.11632
G1 X38.998 Y28.569 E.11631
G1 X42.18 Y26.662 E.11632
G1 X45.534 Y25.076 E.11631
G1 X49.027 Y23.826 E.11632
G1 X52.625 Y22.924 E.11631
G1 X56.295 Y22.38 E.11632
G1 X60 Y22.198 E.11631
G1 X63.705 Y22.38 E.11631
G1 X67.375 Y22.924 E.11632
G1 X70.973 Y23.826 E.11631
G1 X74.466 Y25.076 E.11632
G1 X77.82 Y26.662 E.11631
G1 X81.002 Y28.569 E.11632
G1 X83.981 Y30.779 E.11631
G1 X86.73 Y33.27 E.11632
G1 X89.221 Y36.019 E.11632
G1 X91.431 Y38.998 E.11631
G1 X93.338 Y42.18 E.11632
G1 X94.924 Y45.534 E.11631
G1 X96.174 Y49.027 E.11632
G1 X97.076 Y52.625 E.11631
G1 X97.62 Y56.295 E.11632
G1 X97.779 Y59.538 E.10182
G1 X97.779 Y60.462 E.02895
G1 X97.62 Y63.705 E.10182
G1 X97.076 Y67.375 E.11632
G1 X96.174 Y70.973 E.11631
G1 X94.924 Y74.466 E.11632
G1 X93.338 Y77.82 E.11631
G1 X91.431 Y81.002 E.11632
G1 X89.221 Y83.981 E.11631
G1 X86.73 Y86.73 E.11632
G1 X83.981 Y89.221 E.11632
G1 X81.002 Y91.431 E.11631
G1 X77.82 Y93.338 E.11632
G1 X74.466 Y94.924 E.11631
G1 X70.973 Y96.174 E.11632
G1 X67.375 Y97.076 E.11631
G1 X63.705 Y97.62 E.11632
G1 X60 Y97.802 E.11631
G1 X56.295 Y97.62 E.11632
G1 X52.625 Y97.076 E.11632
G1 X49.027 Y96.174 E.11631
G1 X45.534 Y94.924 E.11631
G1 X42.18 Y93.338 E.11631
G1 X38.998 Y91.431 E.11632
G1 X36.019 Y89.221 E.11631
G1 X33.27 Y86.73 E.11631
G1 X30.779 Y83.981 E.11631
G1 X28.569 Y81.002 E.11631
G1 X26.662 Y77.82 E.11632
G1 X25.076 Y74.466 E.11631
G1 X23.826 Y70.973 E.11631
G1 X22.924 Y67.375 E.11631
G1 X22.38 Y63.705 E.11632
G1 X22.198 Y60 E.11631
G1 X22.38 Y56.295 E.11631
G1 X22.924 Y52.625 E.11632
G1 X23.826 Y49.027 E.11631
G1 X25.076 Y45.534 E.11631
G1 X26.662 Y42.18 E.11631
G1 X28.569 Y38.998 E.11632
G1 X30.779 Y36.019 E.11631
G1 X33.23 Y33.314 E.11443
G1 X33.003 Y33.003 F9000
G1 F1200
G1 X35.779 Y30.487 E.11748
G1 X38.789 Y28.255 E.11748
G1 X42.002 Y26.329 E.11748
G1 X45.389 Y24.727 E.11748
G1 X48.917 Y23.465 E.11748
G1 X52.551 Y22.554 E.11748
G1 X56.258 Y22.004 E.11748
G1 X60 Y21.821 E.11748
G1 X63.742 Y22.004 E.11748
G1 X67.448 Y22.554 E.11748
G1 X71.083 Y23.464 E.11748
G1 X74.611 Y24.727 E.11748
G1 X77.998 Y26.329 E.11748
G1 X81.211 Y28.255 E.11748
G1 X84.221 Y30.487 E.11748
G1 X86.997 Y33.003 E.11748
G1 X89.513 Y35.779 E.11748
G1 X91.745 Y38.789 E.11748
G1 X93.671 Y42.002 E.11748
G1 X95.273 Y45.389 E.11748
G1 X96.535 Y48.917 E.11748
G1 X97.446 Y52.552 E.11748
G1 X97.996 Y56.258 E.11748
G1 X98.156 Y59.52 E.1024
G1 X98.156 Y60.48 E.03011
G1 X97.996 Y63.742 E.1024
G1 X97.446 Y67.448 E.11748
G1 X96.536 Y71.083 E.11748
G1 X95.273 Y74.611 E.11748
G1 X93.671 Y77.998 E.11748
G1 X91.745 Y81.211 E.11748
G1 X89.513 Y84.221 E.11748
G1 X86.997 Y86.997 E.11748
G1 X84.221 Y89.513 E.11748
G1 X81.211 Y91.745 E.11748
G1 X77.998 Y93.671 E.11748
G1 X74.611 Y95.273 E.11748
G1 X71.083 Y96.536 E.11748
G1 X67.448 Y97.446 E.11748
G1 X63.742 Y97.996 E.11748
G1 X60 Y98.179 E.11748
G1 X56.258 Y97.996 E.11748
G1 X52.551 Y97.446 E.11748
G1 X48.917 Y96.535 E.11748
G1 X45.389 Y95.273 E.11748
G1 X42.002 Y93.671 E.11748
G1 X38.789 Y91.745 E.11748
G1 X35.779 Y89.513 E.11748
G1 X33.003 Y86.997 E.11748
G1 X30.487 Y84.221 E.11748
G1 X28.255 Y81.211 E.11748
G1 X26.329 Y77.998 E.11748
G1 X24.727 Y74.611 E.11748
G1 X23.464 Y71.083 E.11748
G1 X22.554 Y67.448 E.11748
G1 X22.004 Y63.742 E.11748
G1 X21.821 Y60 E.11748
G1 X22.004 Y56.258 E.11748
G1 X22.554 Y52.552 E.11748
G1 X23.464 Y48.917 E.11748
G1 X24.727 Y45.389 E.11748
G1 X26.329 Y42.002 E.11748
G1 X28.255 Y38.789 E.11748
G1 X30.487 Y35.779 E.11748
G1 X32.963 Y33.048 E.1156
G1 X32.736 Y32.736 F9000
G1 F1200
G1 X35.54 Y30.195 E.11864
G1 X38.579 Y27.941 E.11864
G1 X41.824 Y25.996 E.11864
G1 X45.245 Y24.378 E.11864
G1 X48.807 Y23.103 E.11864
G1 X52.478 Y22.184 E.11864
G1 X56.221 Y21.629 E.11864
G1 X60 Y21.443 E.11864
G1 X63.779 Y21.629 E.11864
G1 X67.522 Y22.184 E.11864
G1 X71.192 Y23.103 E.11864
G1 X74.755 Y24.378 E.11864
G1 X78.176 Y25.996 E.11864
G1 X81.421 Y27.941 E.11864
G1 X84.46 Y30.195 E.11864
G1 X87.264 Y32.736 E.11864
G1 X89.805 Y35.54 E.11864
G1 X92.059 Y38.579 E.11864
G1 X94.004 Y41.824 E.11864
G1 X95.622 Y45.245 E.11864
G1 X96.897 Y48.807 E.11864
G1 X97.816 Y52.478 E.11864
G1 X98.371 Y56.221 E.11864
G1 X98.533 Y59.501 E.10298
G1 X98.533 Y60.499 E.03127
G1 X98.371 Y63.779 E.10298
G1 X97.816 Y67.522 E.11864
G1 X96.897 Y71.193 E.11864
G1 X95.622 Y74.755 E.11864
G1 X94.004 Y78.176 E.11864
G1 X92.059 Y81.421 E.11864
G1 X89.805 Y84.46 E.11864
G1 X87.264 Y87.264 E.11864
G1 X84.46 Y89.805 E.11864
G1 X81.421 Y92.059 E.11864
G1 X78.176 Y94.004 E.11864
G1 X74.755 Y95.622 E.11864
G1 X71.193 Y96.897 E.11864
G1 X67.522 Y97.816 E.11864
G1 X63.779 Y98.371 E.11864
G1 X60 Y98.557 E.11864
G1 X56.221 Y98.371 E.11864
G1 X52.478 Y97.816 E.11864
G1 X48.807 Y96.897 E.11864
G1 X45.245 Y95.622 E.11864
G1 X41.824 Y94.004 E.11864
G1 X38.579 Y92.059 E.11864
G1 X35.54 Y89.805 E.11864
G1 X32.736 Y87.264 E.11864
G1 X30.195 Y84.46 E.11864
G1 X27.941 Y81.421 E.11864
G1 X25.996 Y78.176 E.11864
G1 X24.378 Y74.755 E.11864
G1 X23.103 Y71.192 E.11864
G1 X22.184 Y67.522 E.11864
G1 X21.629 Y63.779 E.11864
G1 X21.443 Y60 E.11864
G1 X21.629 Y56.221 E.11864
G1 X22.184 Y52.478 E.11864
G1 X23.103 Y48.807 E.11864
G1 X24.378 Y45.245 E.11864
G1 X25.996 Y41.824 E.11864
G1 X27.941 Y38.579 E.11864
G1 X30.195 Y35.54 E.11864
G1 X32.696 Y32.781 E.11676
G1 X32.469 Y32.469 F9000
G1 F1200
G1 X35.3 Y29.903 E.1198
G1 X38.369 Y27.627 E.1198
G1 X41.646 Y25.663 E.1198
G1 X45.1 Y24.029 E.1198
G1 X48.698 Y22.742 E.1198
G1 X52.404 Y21.814 E.1198
G1 X56.184 Y21.253 E.1198
G1 X60 Y21.065 E.1198
G1 X63.816 Y21.253 E.1198
G1 X67.596 Y21.814 E.1198
G1 X71.302 Y22.742 E.1198
G1 X74.9 Y24.029 E.1198
G1 X78.354 Y25.663 E.1198
G1 X81.631 Y27.627 E.1198
G1 X84.7 Y29.903 E.1198
G1 X87.531 Y32.469 E.1198
G1 X90.097 Y35.3 E.1198
G1 X92.373 Y38.369 E.1198
G1 X94.337 Y41.646 E.1198
G1 X95.971 Y45.1 E.1198
G1 X97.258 Y48.698 E.1198
G1 X98.186 Y52.404 E.1198
G1 X98.747 Y56.184 E.1198
G1 X98.935 Y60 E.1198
G1 X98.747 Y63.816 E.1198
G1 X98.186 Y67.596 E.1198
G1 X97.258 Y71.302 E.1198
G1 X95.971 Y74.9 E.1198
G1 X94.337 Y78.354 E.1198
G1 X92.373 Y81.631 E.1198
G1 X90.097 Y84.7 E.1198
G1 X87.531 Y87.531 E.1198
G1 X84.7 Y90.097 E.1198
G1 X81.631 Y92.373 E.1198
G1 X78.354 Y94.337 E.1198
G1 X74.9 Y95.971 E.1198
G1 X71.302 Y97.258 E.1198
G1 X67.596 Y98.186 E.1198
G1 X63.816 Y98.747 E.1198
G1 X60 Y98.935 E.1198
G1 X56.184 Y98.747 E.1198
G1 X52.404 Y98.186 E.1198
G1 X48.698 Y97.258 E.1198
G1 X45.1 Y95.971 E.1198
G1 X41.646 Y94.337 E.1198
G1 X38.369 Y92.373 E.1198
G1 X35.3 Y90.097 E.1198
G1 X32.469 Y87.531 E.1198
G1 X29.903 Y84.7 E.1198
G1 X27.627 Y81.631 E.1198
G1 X25.663 Y78.354 E.1198
G1 X24.029 Y74.9 E.1198
G1 X22.742 Y71.302 E.1198
G1 X21.814 Y67.596 E.1198
G1 X21.253 Y63.816 E.1198
G1 X21.065 Y60 E.1198
G1 X21.253 Y56.184 E.1198
G1 X21.814 Y52.404 E.1198
G1 X22.742 Y48.698 E.1198
G1 X24.029 Y45.1 E.1198
G1 X25.663 Y41.646 E.1198
G1 X27.627 Y38.369 E.1198
G1 X29.903 Y35.3 E.1198
G1 X32.429 Y32.514 E.11792
G1 X32.202 Y32.202 F9000
G1 F1200
G1 X35.061 Y29.611 E.12096
G1 X38.159 Y27.313 E.12096
G1 X41.468 Y25.33 E.12096
G1 X44.956 Y23.68 E.12096
G1 X48.588 Y22.381 E.12096
G1 X52.331 Y21.443 E.12096
G1 X56.147 Y20.877 E.12096
G1 X60 Y20.688 E.12096
G1 X63.853 Y20.877 E.12096
G1 X67.669 Y21.443 E.12096
G1 X71.412 Y22.381 E.12096
G1 X75.044 Y23.68 E.12096
G1 X78.532 Y25.33 E.12096
G1 X81.841 Y27.313 E.12096
G1 X84.939 Y29.611 E.12096
G1 X87.798 Y32.202 E.12096
G1 X90.389 Y35.061 E.12096
G1 X92.687 Y38.159 E.12096
G1 X94.67 Y41.468 E.12096
G1 X96.32 Y44.956 E.12096
G1 X97.619 Y48.588 E.12096
G1 X98.557 Y52.331 E.12096
G1 X99.123 Y56.147 E.12096
G1 X99.312 Y60 E.12096
G1 X99.123 Y63.853 E.12096
G1 X98.557 Y67.669 E.12096
G1 X97.619 Y71.412 E.12096
G1 X96.32 Y75.044 E.12096
G1 X94.67 Y78.532 E.12096
G1 X92.687 Y81.841 E.12096
G1 X90.389 Y84.939 E.12096
G1 X87.798 Y87.798 E.12096
G1 X84.939 Y90.389 E.12096
G1 X81.841 Y92.687 E.12096
G1 X78.532 Y94.67 E.12096
G1 X75.044 Y96.32 E.12096
G1 X71.412 Y97.619 E.12096
G1 X67.669 Y98.557 E.12096
G1 X63.853 Y99.123 E.12096
G1 X60 Y99.312 E.12096
G1 X56.147 Y99.123 E.12097
G1 X52.33 Y98.557 E.12096
G1 X48.588 Y97.619 E.12096
G1 X44.956 Y96.32 E.12096
G1 X41.468 Y94.67 E.12096
G1 X38.159 Y92.687 E.12096
G1 X35.061 Y90.389 E.12096
G1 X32.202 Y87.798 E.12096
G1 X29.611 Y84.939 E.12096
G1 X27.313 Y81.841 E.12096
G1 X25.33 Y78.532 E.12096
G1 X23.68 Y75.044 E.12096
G1 X22.381 Y71.412 E.12096
G1 X21.443 Y67.669 E.12096
G1 X20.877 Y63.853 E.12096
G1 X20.688 Y60 E.12096
G1 X20.877 Y56.147 E.12096
G1 X21.443 Y52.331 E.12096
G1 X22.381 Y48.588 E.12096
G1 X23.68 Y44.956 E.12096
G1 X25.33 Y41.468 E.12096
G1 X27.313 Y38.159 E.12096
G1 X29.611 Y35.061 E.12096
G1 X32.162 Y32.247 E.11908
G1 X31.935 Y31.935 F9000
;TYPE:External perimeter
G1 F1200
G1 X34.821 Y29.32 E.12212
G1 X37.95 Y26.999 E.12212
G1 X41.29 Y24.997 E.12212
G1 X44.811 Y23.332 E.12212
G1 X48.479 Y22.019 E.12212
G1 X52.257 Y21.073 E.12212
G1 X56.11 Y20.501 E.12212
G1 X60 Y20.31 E.12212
G1 X63.89 Y20.501 E.12212
G1 X67.743 Y21.073 E.12212
G1 X71.521 Y22.019 E.12212
G1 X75.189 Y23.332 E.12212
G1 X78.71 Y24.997 E.12212
G1 X82.05 Y26.999 E.12212
G1 X85.179 Y29.319 E.12212
G1 X88.065 Y31.935 E.12212
G1 X90.68 Y34.821 E.12212
G1 X93.001 Y37.95 E.12212
G1 X95.003 Y41.29 E.12212
G1 X96.668 Y44.811 E.12212
G1 X97.981 Y48.479 E.12212
G1 X98.927 Y52.257 E.12212
G1 X99.499 Y56.11 E.12212
G1 X99.69 Y60 E.12212
G1 X99.499 Y63.89 E.12212
G1 X98.927 Y67.743 E.12212
G1 X97.981 Y71.521 E.12212
G1 X96.668 Y75.189 E.12212
G1 X95.003 Y78.71 E.12212
G1 X93.001 Y82.05 E.12212
G1 X90.68 Y85.179 E.12212
G1 X88.065 Y88.065 E.12212
G1 X85.179 Y90.68 E.12212
G1 X82.05 Y93.001 E.12212
G1 X78.71 Y95.003 E.12212
G1 X75.189 Y96.668 E.12212
G1 X71.521 Y97.981 E.12212
G1 X67.743 Y98.927 E.12212
G1 X63.89 Y99.499 E.12212
G1 X60 Y99.69 E.12212
G1 X56.11 Y99.498 E.12213
G1 X52.257 Y98.927 E.12212
G1 X48.479 Y97.981 E.12212
G1 X44.811 Y96.668 E.12212
G1 X41.29 Y95.003 E.12212
G1 X37.95 Y93.001 E.12212
G1 X34.821 Y90.68 E.12212
G1 X31.935 Y88.065 E.12212
G1 X29.319 Y85.179 E.12212
G1 X26.999 Y82.05 E.12212
G1 X24.997 Y78.71 E.12212
G1 X23.332 Y75.189 E.12212
G1 X22.019 Y71.521 E.12212
G1 X21.073 Y67.743 E.12212
G1 X20.501 Y63.89 E.12212
G1 X20.31 Y60 E.12212
G1 X20.501 Y56.11 E.12212
G1 X21.073 Y52.257 E.12212
G1 X22.019 Y48.479 E.12212
G1 X23.332 Y44.811 E.12212
G1 X24.997 Y41.29 E.12212
G1 X26.999 Y37.95 E.12212
G1 X29.319 Y34.821 E.12212
G1 X31.895 Y31.98 E.12024
G1 X32.322 Y32.039 F9000
G1 E-1.4 F2400
;WIPE_START
G1 F7200
G1 X33.227 Y30.769 E-.57
;WIPE_END
G1 E-.03 F2400
G1 X44.979 Y48.433 F9000
G1 E2 F1800
;TYPE:Perimeter
G1 F1200
G1 X46.497 Y46.686 E.07255
G1 X46.689 Y46.495 E.00851
G1 X48.35 Y45.037 E.06929
G1 X48.565 Y44.872 E.00851
G1 X50.403 Y43.645 E.06929
G1 X50.794 Y43.432 E.01398
G1 X52.62 Y42.532 E.06381
G1 X52.87 Y42.428 E.00851
G1 X54.963 Y41.717 E.06929
G1 X55.225 Y41.647 E.00851
G1 X57.526 Y41.194 E.07354
G1 X59.867 Y41.036 E.07354
G1 X60.138 Y41.036 E.00851
G1 X62.343 Y41.181 E.06929
G1 X62.612 Y41.216 E.00851
G1 X64.78 Y41.647 E.06929
G1 X65.207 Y41.773 E.01397
G1 X67.134 Y42.428 E.06382
G1 X67.385 Y42.532 E.00851
G1 X69.367 Y43.509 E.06929
G1 X69.602 Y43.645 E.00851
G1 X71.439 Y44.872 E.06929
G1 X71.786 Y45.153 E.01399
G1 X73.316 Y46.495 E.0638
G1 X73.508 Y46.686 E.00851
G1 X74.965 Y48.348 E.06929
G1 X75.13 Y48.563 E.00851
G1 X76.358 Y50.401 E.06929
G1 X76.571 Y50.793 E.01401
G1 X77.471 Y52.618 E.06378
G1 X77.575 Y52.868 E.00851
G1 X78.285 Y54.961 E.06929
G1 X78.355 Y55.223 E.00851
G1 X78.786 Y57.39 E.06929
G1 X78.833 Y57.835 E.01403
G1 X78.966 Y59.864 E.06375
G1 X78.966 Y60.136 E.00851
G1 X78.822 Y62.341 E.06929
G1 X78.786 Y62.61 E.00851
G1 X78.355 Y64.777 E.06929
G1 X78.228 Y65.207 E.01406
G1 X77.575 Y67.132 E.06373
G1 X77.471 Y67.383 E.00851
G1 X76.493 Y69.365 E.06929
G1 X76.358 Y69.599 E.00851
G1 X75.13 Y71.437 E.06929
G1 X74.847 Y71.786 E.01409
G1 X73.508 Y73.314 E.0637
G1 X73.316 Y73.505 E.00851
G1 X71.654 Y74.963 E.06929
G1 X71.439 Y75.128 E.00851
G1 X69.602 Y76.355 E.06929
G1 X69.206 Y76.57 E.0141
G1 X67.385 Y77.468 E.06368
G1 X67.134 Y77.572 E.00851
G1 X65.042 Y78.283 E.06929
G1 X64.779 Y78.353 E.00851
G1 X62.612 Y78.784 E.06929
G1 X62.164 Y78.831 E.01411
G1 X60.138 Y78.964 E.06368
G1 X59.867 Y78.964 E.00851
G1 X57.662 Y78.819 E.06929
G1 X57.393 Y78.784 E.00851
G1 X55.225 Y78.353 E.06929
G1 X54.794 Y78.225 E.01411
G1 X52.87 Y77.572 E.06368
G1 X52.62 Y77.469 E.00851
G1 X50.638 Y76.491 E.06929
G1 X50.403 Y76.355 E.00851
G1 X48.565 Y75.128 E.06929
G1 X48.216 Y74.845 E.0141
G1 X46.689 Y73.505 E.06369
G1 X46.497 Y73.314 E.00851
G1 X45.04 Y71.652 E.06929
G1 X44.875 Y71.437 E.00851
G1 X43.647 Y69.599 E.06929
G1 X43.433 Y69.205 E.01408
G1 X42.534 Y67.383 E.06371
G1 X42.43 Y67.132 E.00851
G1 X41.72 Y65.039 E.06929
G1 X41.649 Y64.777 E.00851
G1 X41.218 Y62.61 E.06929
G1 X41.171 Y62.164 E.01405
G1 X41.038 Y60.136 E.06374
G1 X41.038 Y59.864 E.00851
G1 X41.183 Y57.659 E.06929
G1 X41.218 Y57.39 E.00851
G1 X41.649 Y55.223 E.06929
G1 X41.776 Y54.794 E.01402
G1 X42.43 Y52.868 E.06377
G1 X42.534 Y52.617 E.00851
G1 X43.511 Y50.635 E.06929
G1 X43.647 Y50.401 E.00851
G1 X44.942 Y48.48 E.07262
G1 X45.275 Y48.666 F9000
G1 F1200
G1 X46.78 Y46.935 E.07192
G1 X46.937 Y46.778 E.00696
G1 X48.599 Y45.321 E.06929
G1 X48.775 Y45.186 E.00696
