; generated by PrusaSlicer 2.5.0+win64 on 2023-03-05 at 09:28:13 UTC


;
;

;
;
; 

; external perimeters extrusion width = 0.42mm
; perimeters extrusion width = 0.44mm
; infill extrusion width = 0.44mm
; solid infill extrusion width = 0.44mm
; top infill extrusion width = 0.40mm
; first layer extrusion width = 0.42mm

M107
M104 S210 ; set temperature
;TYPE:Custom
; You can use following code instead if your PRINT_START macro support Chamber and print area bedmesh
PRINT_START EXTRUDER=210
M109 S210 ; set temperature and wait for it to be reached
G21 ; set units to millimeters
G90 ; use absolute coordinates
M83 ; use relative distances for extrusion
; Filament gcode
M107
;LAYER_CHANGE
;Z:0.2
;HEIGHT:0.2
;BEFORE_LAYER_CHANGE
G92 E0
;0.2


G1 E-2 F2400
G1 Z.2 F9000
;AFTER_LAYER_CHANGE
;0.2
G1 X44.493 Y45.946
G1 E2 F1800
M204 S500
;TYPE:Skirt/Brim
;WIDTH:0.42
G1 F1200
G1 X45.509 Y44.962 E.04437
G1 X46.712 Y43.999 E.0483
G1 X48.32 Y42.933 E.06049
G1 X49.539 Y42.268 E.04352
G1 X50.897 Y41.654 E.04673
G1 X52.203 Y41.178 E.04359
G1 X63.524 Y37.738 E.371
G1 X65.635 Y37.787 E.06621
G1 X67.252 Y38.425 E.05451
G1 X70.327 Y40.039 E.10888
G1 X72.033 Y41.217 E.065
G1 X74.632 Y43.52 E.10888
G1 X75.479 Y44.424 E.03884
G1 X76.007 Y45.071 E.02619
G1 X77.98 Y47.929 E.10888
G1 X78.943 Y49.765 E.065
G1 X80.175 Y53.012 E.10888
G1 X80.405 Y53.807 E.02594
G1 X80.671 Y55.025 E.03909
G1 X81.089 Y58.472 E.10888
G1 X81.089 Y60.545 E.065
G1 X80.671 Y63.992 E.10888
G1 X80.405 Y65.211 E.03909
G1 X80.175 Y66.005 E.02594
G1 X78.943 Y69.252 E.10888
G1 X77.98 Y71.088 E.065
G1 X76.007 Y73.946 E.10888
G1 X74.872 Y75.263 E.05451
G1 X72.033 Y77.8 E.11939
G1 X71.372 Y78.298 E.02594
G1 X70.327 Y78.978 E.03909
G1 X67.252 Y80.592 E.10888
G1 X65.314 Y81.327 E.065
G1 X61.942 Y82.158 E.10888
G1 X60.219 Y82.391 E.05451
G1 X58.158 Y81.933 E.06621
G1 X47.981 Y75.879 E.37129
G1 X46.828 Y75.104 E.04355
G1 X45.665 Y74.189 E.0464
G1 X44.254 Y72.862 E.06072
G1 X43.292 Y71.783 E.04534
G1 X42.054 Y70.107 E.06533
G1 X41.032 Y68.363 E.06339
G1 X40.383 Y66.976 E.048
G1 X39.682 Y65.017 E.06525
G1 X39.208 Y63.066 E.06294
G1 X38.935 Y61.001 E.06533
G1 X38.886 Y58.917 E.06535
G1 X39.053 Y56.915 E.06299
G1 X39.318 Y55.41 E.04791
G1 X39.87 Y53.404 E.06525
G1 X40.611 Y51.52 E.06347
G1 X41.576 Y49.673 E.06533
G1 X42.735 Y47.941 E.06536
G1 X44.014 Y46.41 E.06255
G1 X44.45 Y45.988 E.01901
G1 E-1.4 F2400
;WIPE_START
G1 F7200
G1 X45.509 Y44.962 E-.46716
G1 X45.763 Y44.759 E-.10284
;WIPE_END
G1 E-.03 F2400
G1 X68.482 Y69.309 F9000
G1 E2 F1800
;TYPE:Perimeter
;WIDTH:0.515994
G1 F1200
G1 X68.547 Y69.205 E.00481
;WIDTH:0.477492
G1 X68.612 Y69.102 E.00441
;WIDTH:0.438989
G1 X68.678 Y68.999 E.00402
;WIDTH:0.400486
G1 X68.743 Y68.896 E.00363
;WIDTH:0.409135
G1 X68.883 Y68.774 E.00564
;WIDTH:0.456287
G1 X69.022 Y68.652 E.00636
;WIDTH:0.503438
G1 X69.161 Y68.53 E.00709
G1 X69.149 Y68.563 E.00136
;WIDTH:0.491025
G1 X69.099 Y68.75 E.00719
;WIDTH:0.448011
G1 X69.049 Y68.936 E.0065
;WIDTH:0.404997
G1 X69 Y69.123 E.00581
;WIDTH:0.400486
G1 X68.87 Y69.169 E.00409
;WIDTH:0.438989
G1 X68.741 Y69.216 E.00453
;WIDTH:0.477492
G1 X68.611 Y69.262 E.00497
;WIDTH:0.515994
G1 X68.538 Y69.288 E.00305
G1 E-1.4 F2400
;WIPE_START
G1 F7200
G1 X68.547 Y69.205 E-.0264
G1 X68.612 Y69.102 E-.03869
G1 X68.678 Y68.999 E-.03869
G1 X68.743 Y68.896 E-.03869
G1 X68.883 Y68.774 E-.05861
G1 X69.022 Y68.652 E-.05861
G1 X69.161 Y68.53 E-.05861
G1 X69.149 Y68.563 E-.01121
G1 X69.099 Y68.75 E-.06112
G1 X69.049 Y68.936 E-.06112
G1 X69 Y69.123 E-.06112
G1 X68.87 Y69.169 E-.04357
G1 X68.83 Y69.184 E-.01355
;WIPE_END
G1 E-.03 F2400
G1 X66.665 Y70.918 F9000
G1 E2 F1800
;WIDTH:0.506312
G1 F1200
G1 X66.571 Y71.092 E.00761
;WIDTH:0.459568
G1 X66.477 Y71.265 E.00684
;WIDTH:0.412824
G1 X66.382 Y71.438 E.00607
;WIDTH:0.36608
G1 X66.302 Y71.446 E.00215
;WIDTH:0.410075
G1 X66.064 Y71.506 E.00751
;WIDTH:0.45407
G1 X65.825 Y71.566 E.00841
;WIDTH:0.498064
G1 X65.587 Y71.626 E.00931
G1 X65.787 Y71.468 E.00967
;WIDTH:0.45407
G1 X65.988 Y71.31 E.00873
;WIDTH:0.410075
G1 X66.188 Y71.151 E.0078
;WIDTH:0.412824
G1 X66.347 Y71.074 E.00544
;WIDTH:0.459568
G1 X66.506 Y70.996 E.00613
;WIDTH:0.506312
G1 X66.612 Y70.945 E.00451
G1 E-1.4 F2400
;WIPE_START
G1 F7200
G1 X66.571 Y71.092 E-.0483
G1 X66.477 Y71.265 E-.06252
G1 X66.382 Y71.438 E-.06252
G1 X66.302 Y71.446 E-.02536
G1 X66.064 Y71.506 E-.07788
G1 X65.825 Y71.566 E-.07788
G1 X65.587 Y71.626 E-.07788
G1 X65.787 Y71.468 E-.08087
G1 X65.928 Y71.357 E-.05677
;WIPE_END
G1 E-.03 F2400
G1 X62.666 Y73.008 F9000
G1 E2 F1800
;WIDTH:0.502464
G1 F1200
G1 X62.834 Y72.92 E.00722
;WIDTH:0.455559
G1 X63.001 Y72.832 E.00648
;WIDTH:0.408654
G1 X63.168 Y72.745 E.00574
;WIDTH:0.410858
G1 X63.336 Y72.708 E.00527
;WIDTH:0.459968
G1 X63.504 Y72.67 E.00597
;WIDTH:0.509078
G1 X63.673 Y72.633 E.00667
G1 X63.545 Y72.777 E.00746
;WIDTH:0.459968
G1 X63.417 Y72.921 E.00668
;WIDTH:0.410858
G1 X63.289 Y73.065 E.00589
;WIDTH:0.361748
G1 X63.21 Y73.053 E.0021
;WIDTH:0.408654
G1 X63.029 Y73.038 E.00554
;WIDTH:0.455559
G1 X62.848 Y73.023 E.00625
;WIDTH:0.502464
G1 X62.726 Y73.013 E.00466
G1 E-1.4 F2400
;WIPE_START
G1 F7200
G1 X62.834 Y72.92 E-.04494
G1 X63.001 Y72.832 E-.05982
G1 X63.168 Y72.745 E-.05982
G1 X63.336 Y72.708 E-.05453
G1 X63.504 Y72.67 E-.05453
G1 X63.673 Y72.633 E-.05453
G1 X63.545 Y72.777 E-.06098
G1 X63.417 Y72.921 E-.06098
G1 X63.289 Y73.065 E-.06098
G1 X63.21 Y73.053 E-.02509
G1 X63.104 Y73.044 E-.03382
;WIPE_END
G1 E-.03 F2400
G1 X57.382 Y72.343 F9000
G1 E2 F1800
;WIDTH:0.419999
G1 F1200
G1 X57.604 Y72.102 E.01027
G1 X57.944 Y71.628 E.01827
G1 X58.151 Y71.127 E.01701
G1 X58.458 Y71.815 E.02362
G1 X58.841 Y72.293 E.01921
G1 X59.219 Y72.635 E.01597
G1 X59.549 Y72.844 E.01224
;WIDTH:0.40916
G1 X60.085 Y73.073 E.01777
;WIDTH:0.397399
G1 X60.351 Y73.158 E.00823
;WIDTH:0.42243
G1 X60.617 Y73.244 E.00881
;WIDTH:0.464562
G1 X60.838 Y73.277 E.00784
;WIDTH:0.506694
G1 X61.059 Y73.309 E.00862
;WIDTH:0.548826
G1 X61.281 Y73.342 E.00941
G1 X61.181 Y73.381 E.00451
;WIDTH:0.515156
G1 X61.081 Y73.419 E.00421
;WIDTH:0.481486
G1 X60.981 Y73.458 E.00391
;WIDTH:0.447815
G1 X60.399 Y73.621 E.02033
;WIDTH:0.42243
G1 X60.328 Y73.555 E.00309
G1 X60.149 Y73.468 E.00627
;WIDTH:0.397399
G1 X59.971 Y73.381 E.00585
;WIDTH:0.40916
G1 X59.415 Y73.203 E.01777
;WIDTH:0.419999
G1 X59.058 Y73.18 E.01122
G1 X58.055 Y73.197 E.03143
G1 X56.975 Y73.146 E.03391
G1 X56.256 Y73.073 E.02267
G1 X56.476 Y72.98 E.0075
G1 X57.205 Y72.537 E.02673
G1 X57.342 Y72.387 E.00637
G1 E-1.4 F2400
;WIPE_START
G1 F7200
G1 X57.604 Y72.102 E-.12275
G1 X57.944 Y71.628 E-.18451
G1 X58.151 Y71.127 E-.17177
G1 X58.268 Y71.39 E-.09097
;WIPE_END
G1 E-.03 F2400
G1 X58.15 Y65.739 F9000
G1 E2 F1800
;WIDTH:0.494163
G1 F1200
G1 X58.073 Y65.552 E.00757
G1 X57.713 Y64.991 E.02501
G1 X58.568 Y64.991 E.03208
G1 X58.337 Y65.327 E.0153
G1 X58.175 Y65.684 E.01472
G1 E-1.4 F2400
;WIPE_START
G1 F7200
G1 X58.073 Y65.552 E-.05281
G1 X57.713 Y64.991 E-.21105
G1 X58.568 Y64.991 E-.27071
G1 X58.505 Y65.083 E-.03543
;WIPE_END
G1 E-.03 F2400
G1 X57.692 Y54.023 F9000
G1 E2 F1800
;WIDTH:0.4995
G1 F1200
G1 X57.928 Y53.719 E.0146
G1 X58.142 Y53.284 E.01842
G1 X58.577 Y54.023 E.03257
G1 X57.752 Y54.023 E.03131
G1 E-1.4 F2400
;WIPE_START
G1 F7200
G1 X57.928 Y53.719 E-.11116
G1 X58.142 Y53.284 E-.15361
G1 X58.577 Y54.023 E-.2717
G1 X58.471 Y54.023 E-.03353
;WIPE_END
G1 E-.03 F2400
G1 X58.148 Y47.897 F9000
G1 E2 F1800
;WIDTH:0.419999
G1 F1200
G1 X57.859 Y47.234 E.02269
G1 X57.564 Y46.86 E.01494
G1 X57.093 Y46.397 E.02069
G1 X56.631 Y46.103 E.01719
G1 X56.285 Y45.941 E.01198
G1 X57.277 Y45.84 E.03126
G1 X58.263 Y45.812 E.03093
G1 X59.248 Y45.856 E.03093
G1 X60.06 Y45.951 E.02562
G1 X59.545 Y46.169 E.01753
G1 X59.279 Y46.342 E.00994
G1 X58.837 Y46.728 E.01842
G1 X58.436 Y47.234 E.02023
G1 X58.172 Y47.842 E.0208
G1 E-1.4 F2400
;WIPE_START
G1 F7200
G1 X57.859 Y47.234 E-.21664
G1 X57.564 Y46.86 E-.15088
G1 X57.108 Y46.412 E-.20248
;WIPE_END
G1 E-.03 F2400
G1 X65.773 Y47.487 F9000
G1 E2 F1800
;WIDTH:0.502864
G1 F1200
G1 X65.803 Y47.494 E.00119
;WIDTH:0.492017
G1 X65.997 Y47.522 E.0073
;WIDTH:0.448616
G1 X66.19 Y47.549 E.00659
;WIDTH:0.405214
G1 X66.384 Y47.577 E.00589
;WIDTH:0.401247
G1 X66.442 Y47.697 E.00397
;WIDTH:0.440681
G1 X66.5 Y47.817 E.00441
;WIDTH:0.480116
G1 X66.558 Y47.936 E.00485
;WIDTH:0.51955
G1 X66.617 Y48.056 E.00528
G1 X66.51 Y48.007 E.00467
;WIDTH:0.480116
G1 X66.403 Y47.957 E.00428
;WIDTH:0.440681
G1 X66.296 Y47.908 E.00389
;WIDTH:0.401247
G1 X66.19 Y47.858 E.00351
;WIDTH:0.40883
G1 X66.051 Y47.735 E.00566
;WIDTH:0.455847
G1 X65.912 Y47.611 E.00639
;WIDTH:0.502864
G1 X65.818 Y47.527 E.00482
G1 E-1.4 F2400
;WIPE_START
G1 F7200
G1 X65.803 Y47.494 E-.01138
G1 X65.997 Y47.522 E-.06187
G1 X66.19 Y47.549 E-.06187
G1 X66.384 Y47.577 E-.06187
G1 X66.442 Y47.697 E-.04221
G1 X66.5 Y47.817 E-.04221
G1 X66.558 Y47.936 E-.04221
G1 X66.617 Y48.056 E-.04221
G1 X66.51 Y48.007 E-.03728
G1 X66.403 Y47.957 E-.03728
G1 X66.296 Y47.908 E-.03728
G1 X66.19 Y47.858 E-.03728
G1 X66.06 Y47.743 E-.05507
;WIPE_END
G1 E-.03 F2400
G1 X68.492 Y49.728 F9000
G1 E2 F1800
;WIDTH:0.535616
G1 F1200
G1 X68.62 Y49.769 E.00548
;WIDTH:0.490981
G1 X68.747 Y49.811 E.00498
;WIDTH:0.446345
G1 X68.874 Y49.852 E.00449
;WIDTH:0.40171
G1 X69.002 Y49.893 E.00399
;WIDTH:0.357074
G1 X69.059 Y50.097 E.00554
;WIDTH:0.406201
G1 X69.132 Y50.286 E.00613
;WIDTH:0.455328
G1 X69.204 Y50.476 E.00695
;WIDTH:0.504454
G1 X69.277 Y50.665 E.00778
G1 X69.13 Y50.516 E.00802
;WIDTH:0.455328
G1 X68.983 Y50.368 E.00717
;WIDTH:0.406201
G1 X68.836 Y50.22 E.00631
;WIDTH:0.40171
G1 X68.75 Y50.097 E.00447
;WIDTH:0.446345
G1 X68.664 Y49.974 E.00503
;WIDTH:0.490981
G1 X68.578 Y49.851 E.00558
;WIDTH:0.535616
G1 X68.527 Y49.777 E.00368
G1 E-1.4 F2400
;WIPE_START
G1 F7200
G1 X68.62 Y49.769 E-.02954
G1 X68.747 Y49.811 E-.04236
G1 X68.874 Y49.852 E-.04236
G1 X69.002 Y49.893 E-.04236
G1 X69.059 Y50.097 E-.06719
G1 X69.132 Y50.286 E-.06422
G1 X69.204 Y50.476 E-.06422
G1 X69.277 Y50.665 E-.06422
G1 X69.13 Y50.516 E-.06618
G1 X68.983 Y50.368 E-.06618
G1 X68.936 Y50.321 E-.02117
;WIPE_END
G1 E-.03 F2400
G1 X70.908 Y53.251 F9000
G1 E2 F1800
;WIDTH:0.505726
G1 F1200
G1 X70.891 Y53.227 E.00111
;WIDTH:0.457804
G1 X70.787 Y53.078 E.00628
;WIDTH:0.409882
G1 X70.682 Y52.93 E.00555
;WIDTH:0.410303
G1 X70.622 Y52.763 E.0054
;WIDTH:0.458646
G1 X70.562 Y52.597 E.00611
;WIDTH:0.506988
G1 X70.502 Y52.431 E.00682
G1 X70.556 Y52.475 E.00269
;WIDTH:0.481887
G1 X70.699 Y52.573 E.00634
;WIDTH:0.441912
G1 X70.842 Y52.672 E.00576
;WIDTH:0.401936
G1 X70.985 Y52.771 E.00519
;WIDTH:0.36196
G1 X70.983 Y52.85 E.0021
;WIDTH:0.409882
G1 X70.987 Y53.026 E.00535
;WIDTH:0.457804
G1 X70.992 Y53.201 E.00605
;WIDTH:0.505726
G1 X70.996 Y53.376 E.00675
G1 X70.942 Y53.3 E.00359
G1 E-1.4 F2400
;WIPE_START
G1 F7200
G1 X70.891 Y53.227 E-.0281
G1 X70.787 Y53.078 E-.05763
G1 X70.682 Y52.93 E-.05763
G1 X70.622 Y52.763 E-.05598
G1 X70.562 Y52.597 E-.05598
G1 X70.502 Y52.431 E-.05598
G1 X70.556 Y52.475 E-.02207
G1 X70.699 Y52.573 E-.05501
G1 X70.842 Y52.672 E-.05501
G1 X70.985 Y52.771 E-.05501
G1 X70.983 Y52.85 E-.0251
G1 X70.986 Y52.997 E-.0465
;WIPE_END
G1 E-.03 F2400
G1 X71.223 Y60.534 F9000
G1 E2 F1800
;WIDTH:0.419999
G1 F1200
G1 X71.111 Y60.376 E.00607
G1 X70.814 Y60.107 E.01257
G1 X70.149 Y59.646 E.02539
G1 X69.806 Y59.508 E.01156
G1 X70.149 Y59.371 E.01156
G1 X70.445 Y59.184 E.011
G1 X70.953 Y58.794 E.02008
G1 X71.325 Y58.362 E.01789
G1 X71.687 Y57.716 E.02319
G1 X71.772 Y57.434 E.00925
;WIDTH:0.464243
G1 X71.823 Y57.29 E.00534
;WIDTH:0.508487
G1 X71.874 Y57.147 E.0059
;WIDTH:0.552731
G1 X71.926 Y57.003 E.00646
;WIDTH:0.596975
G1 X71.977 Y56.86 E.00702
;WIDTH:0.641218
G1 X72.028 Y56.716 E.00758
G1 X72.057 Y56.783 E.00365
;WIDTH:0.601465
G1 X72.086 Y56.851 E.00341
;WIDTH:0.561712
G1 X72.115 Y56.918 E.00316
;WIDTH:0.521959
G1 X72.144 Y56.986 E.00292
;WIDTH:0.482205
G1 X72.22 Y57.388 E.01497
;WIDTH:0.451102
G1 X72.297 Y57.791 E.01391
;WIDTH:0.419999
G1 X72.373 Y58.619 E.02608
G1 X72.482 Y59.207 E.01877
G1 X72.617 Y59.509 E.01035
G1 X72.557 Y59.617 E.00389
G1 X72.423 Y60.024 E.01344
G1 X72.238 Y61.707 E.05306
;WIDTH:0.393831
G1 X72.18 Y62.177 E.01384
;WIDTH:0.406745
G1 X72.172 Y62.439 E.00791
;WIDTH:0.445826
G1 X72.164 Y62.7 E.00876
;WIDTH:0.484907
G1 X72.156 Y62.961 E.00961
;WIDTH:0.533465
G1 X72.046 Y63.066 E.00621
;WIDTH:0.582022
G1 X71.936 Y63.171 E.00682
G1 X71.924 Y63.078 E.00421
;WIDTH:0.534592
G1 X71.913 Y62.985 E.00384
;WIDTH:0.487161
G1 X71.901 Y62.892 E.00347
;WIDTH:0.439731
G1 X71.89 Y62.799 E.0031
;WIDTH:0.3923
G1 X71.878 Y62.705 E.00273
;WIDTH:0.38651
G1 X71.856 Y62.023 E.01952
;WIDTH:0.419999
G1 X71.69 Y61.321 E.0226
G1 X71.391 Y60.768 E.01972
G1 X71.258 Y60.582 E.00715
G1 E-1.4 F2400
;WIPE_START
G1 F7200
G1 X71.111 Y60.376 E-.08026
G1 X70.814 Y60.107 E-.12692
G1 X70.149 Y59.646 E-.25641
G1 X69.837 Y59.521 E-.10641
;WIPE_END
G1 E-.03 F2400
G1 X70.986 Y65.639 F9000
G1 E2 F1800
;WIDTH:0.525712
G1 F1200
G1 X70.985 Y65.791 E.00608
;WIDTH:0.485752
G1 X70.985 Y65.942 E.00558
;WIDTH:0.445791
G1 X70.984 Y66.094 E.00508
;WIDTH:0.405831
G1 X70.983 Y66.245 E.00457
;WIDTH:0.36587
G1 X70.916 Y66.289 E.00215
;WIDTH:0.408958
G1 X70.761 Y66.413 E.00606
;WIDTH:0.452045
G1 X70.606 Y66.538 E.00677
;WIDTH:0.495132
G1 X70.45 Y66.662 E.00748
G1 X70.525 Y66.471 E.00773
;WIDTH:0.452045
G1 X70.6 Y66.279 E.007
;WIDTH:0.408958
G1 X70.675 Y66.088 E.00626
;WIDTH:0.405831
G1 X70.753 Y65.976 E.00412
;WIDTH:0.445791
G1 X70.83 Y65.863 E.00457
;WIDTH:0.485752
G1 X70.908 Y65.751 E.00503
;WIDTH:0.525712
G1 X70.952 Y65.688 E.00307
G1 E-1.4 F2400
;WIPE_START
G1 F7200
G1 X70.985 Y65.791 E-.03406
G1 X70.985 Y65.942 E-.04798
G1 X70.984 Y66.094 E-.04798
G1 X70.983 Y66.245 E-.04798
G1 X70.916 Y66.289 E-.02535
G1 X70.761 Y66.413 E-.06301
G1 X70.606 Y66.538 E-.06301
G1 X70.45 Y66.662 E-.06301
G1 X70.525 Y66.471 E-.06512
G1 X70.6 Y66.279 E-.06512
G1 X70.654 Y66.14 E-.0474
;WIPE_END
G1 E-.03 F2400
G1 X44.581 Y57.626 F9000
G1 E2 F1800
;WIDTH:0.419999
G1 F1200
G1 X44.893 Y58.232 E.02137
G1 X45.18 Y58.611 E.0149
G1 X45.545 Y58.984 E.01636
G1 X45.845 Y59.183 E.0113
G1 X46.489 Y59.508 E.02262
G1 X46.26 Y59.609 E.00786
G1 X45.68 Y59.934 E.02082
G1 X45.227 Y60.346 E.01922
G1 X44.891 Y60.788 E.01739
G1 X44.59 Y61.428 E.02218
G1 X44.505 Y60.682 E.02353
G1 X44.462 Y60.087 E.01871
G1 X44.459 Y59.512 E.01803
G1 X44.48 Y58.608 E.02835
G1 X44.575 Y57.686 E.02907
G1 E-1.4 F2400
;WIPE_START
G1 F7200
G1 X44.893 Y58.232 E-.20015
G1 X45.18 Y58.611 E-.15051
G1 X45.545 Y58.984 E-.16525
G1 X45.687 Y59.078 E-.05409
;WIPE_END
G1 E-.03 F2400
G1 X59.222 Y72.113 F9000
G1 E2 F1800
G1 F1200
G1 X58.937 Y71.829 E.01261
G1 X58.696 Y71.473 E.01346
G1 X58.457 Y70.87 E.02034
;WIDTH:0.427335
G1 X58.338 Y70.329 E.0177
G1 X58.34 Y70.096 E.00746
;WIDTH:0.418309
G1 X58.333 Y66.926 E.09896
;WIDTH:0.42259
G1 X58.381 Y66.408 E.01642
G1 X58.499 Y65.979 E.01405
;WIDTH:0.419999
G1 X58.698 Y65.53 E.01541
G1 X59.006 Y65.101 E.01657
G1 X59.603 Y64.577 E.02489
G1 X56.694 Y64.577 E.0912
G1 X56.948 Y64.764 E.00988
G1 X57.327 Y65.161 E.01722
G1 X57.702 Y65.737 E.02155
G1 X57.846 Y66.156 E.01389
;WIDTH:0.429772
G1 X57.956 Y66.695 E.01771
G1 X57.962 Y66.926 E.00744
;WIDTH:0.418309
G1 X57.965 Y70.097 E.09896
;WIDTH:0.424282
G1 X57.929 Y70.459 E.01154
G1 X57.706 Y71.274 E.0268
;WIDTH:0.419999
G1 X57.301 Y71.877 E.02276
G1 X56.965 Y72.246 E.01566
G1 X56.294 Y72.65 E.02457
G1 X55.88 Y72.813 E.01392
G1 X55.132 Y72.886 E.02359
;WIDTH:0.402798
G1 X54.582 Y72.82 E.01656
;WIDTH:0.363927
G1 X53.918 Y72.628 E.01846
;WIDTH:0.356282
G1 X52.862 Y72.24 E.02932
;WIDTH:0.357714
G1 X51.843 Y71.769 E.02938
;WIDTH:0.3646
G1 X50.814 Y71.182 E.03167
;WIDTH:0.355712
G1 X49.938 Y70.583 E.02761
;WIDTH:0.363616
G1 X49.263 Y70.045 E.02302
;WIDTH:0.370103
G1 X48.527 Y69.362 E.02731
G1 X47.89 Y68.719 E.02462
;WIDTH:0.36444
G1 X47.155 Y67.826 E.03091
;WIDTH:0.363221
G1 X46.625 Y67.072 E.02455
;WIDTH:0.363497
G1 X46.375 Y66.675 E.0125
;WIDTH:0.368115
G1 X45.642 Y65.308 E.04195
;WIDTH:0.355497
G1 X45.259 Y64.398 E.02565
;WIDTH:0.362763
G1 X44.95 Y63.486 E.02561
;WIDTH:0.367346
G1 X44.829 Y63.033 E.01264
