; generated by PrusaSlicer 2.5.0+win64 on 2023-01-25 at 08:10:13 UTC


;
;

;
;
; 

; external perimeters extrusion width = 0.42mm
; perimeters extrusion width = 0.44mm
; infill extrusion width = 0.44mm
; solid infill extrusion width = 0.44mm
; top infill extrusion width = 0.40mm
; first layer extrusion width = 0.42mm

M107
M104 S210 ; set temperature
;TYPE:Custom
; You can use following code instead if your PRINT_START macro support Chamber and print area bedmesh
PRINT_START EXTRUDER=210
M109 S210 ; set temperature and wait for it to be reached
G21 ; set units to millimeters
G90 ; use absolute coordinates
M83 ; use relative distances for extrusion
; Filament gcode
M107
;LAYER_CHANGE
;Z:0.2
;HEIGHT:0.2
;BEFORE_LAYER_CHANGE
G92 E0
;0.2


G1 E-2 F2400
G1 Z.2 F9000
;AFTER_LAYER_CHANGE
;0.2
G1 X26.9 Y18.532
G1 E2 F1800
M204 S500
;TYPE:Skirt/Brim
;WIDTH:0.42
G1 F1500
G1 X27.816 Y17.585 E.04131
G1 X29.45 Y16.451 E.06237
G1 X30.659 Y15.926 E.04131
G1 X33.904 Y15.223 E.10411
G1 X35.221 Y15.2 E.04131
G1 X37.179 Y15.555 E.06237
G1 X38.405 Y16.038 E.04131
G1 X108.958 Y61.453 E2.63082
G1 X109.906 Y62.368 E.04131
G1 X111.039 Y64.003 E.06237
G1 X111.564 Y65.212 E.04131
G1 X112.267 Y68.457 E.10411
G1 X112.29 Y69.774 E.04131
G1 X111.935 Y71.732 E.06237
G1 X111.452 Y72.957 E.04131
G1 X92.008 Y103.165 E1.12638
G1 X90.82 Y104.283 E.05115
G1 X89.884 Y104.637 E.03138
G1 X85.836 Y105.515 E.12987
G1 X84.205 Y105.465 E.05115
G1 X83.292 Y105.054 E.03138
G1 X9.345 Y57.455 E2.75736
G1 X8.227 Y56.267 E.05115
G1 X7.873 Y55.331 E.03138
G1 X6.995 Y51.283 E.12987
G1 X7.045 Y49.652 E.05115
G1 X7.456 Y48.739 E.03138
G1 X26.867 Y18.583 E1.1245
G1 E-1.4 F2400
;WIPE_START
G1 F7200
G1 X27.816 Y17.585 E-.43591
G1 X28.164 Y17.343 E-.13409
;WIPE_END
G1 E-.03 F2400
G1 X29.617 Y21.08 F9000
G1 E2 F1800
G1 F1500
G1 X30.638 Y20.084 E.04474
G1 X31.949 Y19.408 E.04624
G1 X34.076 Y18.934 E.06833
G1 X35.473 Y18.967 E.04382
G1 X36.987 Y19.483 E.05014
G1 X106.459 Y64.201 E2.59049
G1 X107.59 Y65.461 E.05309
G1 X108.128 Y66.652 E.04098
G1 X108.573 Y68.831 E.06973
G1 X108.479 Y70.26 E.0449
G1 X108.007 Y71.541 E.0428
G1 X89.771 Y99.87 E1.05636
G1 X88.632 Y100.896 E.04806
G1 X87.529 Y101.397 E.038
G1 X86.25 Y101.628 E.04074
G1 X85.164 Y101.543 E.03417
G1 X83.962 Y101.128 E.03986
G1 X12.64 Y55.219 E2.6595
G1 X11.614 Y54.079 E.04806
G1 X11.113 Y52.976 E.038
G1 X10.882 Y51.697 E.04074
G1 X10.967 Y50.611 E.03417
G1 X11.382 Y49.409 E.03986
G1 X29.584 Y21.131 E1.05446
G1 X29.901 Y21.335 F9000
G1 F1500
G1 X30.88 Y20.375 E.04298
G1 X32.098 Y19.755 E.04285
G1 X34.134 Y19.308 E.06537
G1 X35.434 Y19.343 E.04077
G1 X36.802 Y19.812 E.04534
G1 X106.233 Y64.504 E2.58899
G1 X107.259 Y65.644 E.04806
G1 X107.763 Y66.75 E.03811
G1 X108.195 Y68.834 E.06674
G1 X108.115 Y70.157 E.04156
G1 X107.678 Y71.355 E.03996
G1 X89.468 Y99.645 E1.05491
G1 X88.448 Y100.565 E.04306
G1 X87.436 Y101.03 E.03493
G1 X86.252 Y101.25 E.03774
G1 X85.262 Y101.178 E.03115
G1 X84.147 Y100.799 E.03693
G1 X12.865 Y54.915 E2.65799
G1 X11.945 Y53.895 E.04306
G1 X11.479 Y52.883 E.03493
G1 X11.259 Y51.7 E.03774
G1 X11.332 Y50.709 E.03115
G1 X11.711 Y49.594 E.03693
G1 X29.869 Y21.385 E1.05185
G1 X30.186 Y21.59 F9000
G1 F1500
G1 X30.227 Y21.526 E.00237
G1 X31.12 Y20.667 E.03885
G1 X32.245 Y20.103 E.03945
G1 X34.191 Y19.681 E.06243
G1 X35.393 Y19.719 E.03772
G1 X36.616 Y20.141 E.04058
G1 X106.008 Y64.808 E2.58751
G1 X106.928 Y65.828 E.04307
G1 X107.398 Y66.849 E.03524
G1 X107.817 Y68.839 E.06377
G1 X107.751 Y70.056 E.03821
G1 X107.349 Y71.169 E.03708
G1 X89.164 Y99.42 E1.05345
G1 X88.263 Y100.236 E.03811
G1 X87.341 Y100.665 E.03187
G1 X86.253 Y100.873 E.03476
G1 X85.357 Y100.813 E.02813
G1 X84.331 Y100.468 E.03396
G1 X13.089 Y54.611 E2.65647
G1 X12.274 Y53.71 E.03811
G1 X11.845 Y52.789 E.03187
G1 X11.637 Y51.7 E.03476
G1 X11.697 Y50.805 E.02813
G1 X12.041 Y49.778 E.03396
G1 X30.153 Y21.64 E1.04921
G1 X30.47 Y21.844 F9000
G1 F1500
G1 X30.532 Y21.749 E.00354
G1 X31.359 Y20.959 E.03586
G1 X32.347 Y20.467 E.03463
G1 X34.247 Y20.055 E.06095
G1 X35.351 Y20.094 E.03463
G1 X36.431 Y20.47 E.03586
G1 X105.783 Y65.112 E2.58604
G1 X106.599 Y66.013 E.03811
G1 X107.034 Y66.949 E.03237
G1 X107.439 Y68.846 E.06083
G1 X107.386 Y69.957 E.03486
G1 X107.02 Y70.983 E.03416
G1 X88.86 Y99.196 E1.05199
G1 X88.076 Y99.907 E.0332
G1 X87.245 Y100.3 E.02882
G1 X86.25 Y100.495 E.03179
G1 X85.451 Y100.447 E.0251
G1 X84.514 Y100.138 E.03093
G1 X13.314 Y54.308 E2.65493
G1 X12.603 Y53.523 E.0332
G1 X12.21 Y52.692 E.02882
G1 X12.015 Y51.697 E.03179
G1 X12.063 Y50.898 E.0251
G1 X12.372 Y49.961 E.03093
G1 X30.438 Y21.895 E1.04657
G1 X30.755 Y22.099 F9000
G1 F1500
G1 X30.837 Y21.972 E.00474
G1 X31.555 Y21.283 E.03119
G1 X32.451 Y20.83 E.03149
G1 X34.303 Y20.428 E.05941
G1 X35.307 Y20.47 E.03149
G1 X36.245 Y20.799 E.03119
G1 X105.559 Y65.415 E2.58458
G1 X106.27 Y66.199 E.03319
G1 X106.67 Y67.051 E.0295
G1 X107.062 Y68.856 E.05792
G1 X107.021 Y69.859 E.03149
G1 X106.691 Y70.798 E.03119
G1 X88.557 Y98.971 E1.05052
G1 X87.888 Y99.579 E.02835
G1 X87.146 Y99.935 E.02579
G1 X86.245 Y100.117 E.02883
G1 X85.542 Y100.08 E.02206
G1 X84.697 Y99.808 E.02785
G1 X13.539 Y54.004 E2.65337
G1 X12.93 Y53.335 E.02835
G1 X12.575 Y52.593 E.02579
G1 X12.393 Y51.692 E.02883
G1 X12.43 Y50.99 E.02206
G1 X12.702 Y50.144 E.02785
G1 X30.723 Y22.149 E1.0439
G1 X31.04 Y22.353 F9000
G1 F1500
G1 X31.142 Y22.194 E.00594
G1 X31.752 Y21.605 E.02658
G1 X32.556 Y21.193 E.02831
G1 X34.358 Y20.802 E.05783
G1 X35.26 Y20.845 E.02831
G1 X36.059 Y21.128 E.02658
G1 X105.334 Y65.719 E2.58314
G1 X105.942 Y66.387 E.02831
G1 X106.307 Y67.152 E.02658
G1 X106.688 Y68.911 E.05643
G1 X106.645 Y69.813 E.02831
G1 X106.362 Y70.612 E.02658
G1 X88.254 Y98.745 E1.04903
G1 X87.658 Y99.279 E.02509
G1 X87.009 Y99.583 E.02248
G1 X86.196 Y99.743 E.02597
G1 X85.632 Y99.713 E.0177
G1 X84.879 Y99.476 E.02474
G1 X13.765 Y53.701 E2.65175
G1 X13.23 Y53.105 E.02509
G1 X12.927 Y52.456 E.02248
G1 X12.767 Y51.643 E.02597
G1 X12.797 Y51.079 E.0177
G1 X13.033 Y50.327 E.02474
G1 X31.007 Y22.404 E1.0412
G1 X31.324 Y22.608 F9000
G1 F1500
G1 X31.448 Y22.416 E.00716
G1 X31.952 Y21.926 E.02203
G1 X32.661 Y21.556 E.02508
G1 X34.413 Y21.176 E.05621
G1 X35.212 Y21.22 E.02508
G1 X35.873 Y21.456 E.02203
G1 X105.108 Y66.022 E2.58166
G1 X105.642 Y66.618 E.02508
G1 X105.943 Y67.253 E.02203
G1 X106.314 Y68.966 E.05495
G1 X106.271 Y69.765 E.02508
G1 X106.034 Y70.426 E.02203
G1 X87.951 Y98.518 E1.04752
G1 X87.43 Y98.978 E.02179
G1 X86.914 Y99.218 E.01783
G1 X86.146 Y99.368 E.02454
G1 X85.719 Y99.346 E.01339
G1 X85.061 Y99.145 E.02158
G1 X13.992 Y53.398 E2.65006
G1 X13.532 Y52.877 E.02179
G1 X13.292 Y52.361 E.01783
G1 X13.142 Y51.593 E.02454
G1 X13.164 Y51.167 E.01339
G1 X13.365 Y50.508 E.02158
G1 X31.292 Y22.658 E1.03848
G1 X31.609 Y22.862 F9000
G1 F1500
G1 X31.754 Y22.637 E.00839
G1 X32.154 Y22.246 E.01755
G1 X32.767 Y21.919 E.02179
G1 X34.466 Y21.551 E.05452
G1 X35.16 Y21.594 E.02179
G1 X35.686 Y21.785 E.01755
G1 X104.881 Y66.325 E2.58017
G1 X105.341 Y66.846 E.02179
G1 X105.578 Y67.353 E.01755
G1 X105.94 Y69.019 E.05346
G1 X105.896 Y69.713 E.02179
G1 X105.705 Y70.239 E.01755
G1 X87.649 Y98.291 E1.04599
G1 X87.205 Y98.675 E.01842
G1 X86.82 Y98.852 E.01328
G1 X86.096 Y98.994 E.02311
G1 X85.804 Y98.978 E.00919
G1 X85.241 Y98.813 E.01838
G1 X14.219 Y53.096 E2.64831
G1 X13.835 Y52.652 E.01842
G1 X13.658 Y52.267 E.01328
G1 X13.516 Y51.544 E.02311
G1 X13.532 Y51.251 E.00919
G1 X13.697 Y50.689 E.01838
G1 X31.576 Y22.913 E1.03572
G1 X31.893 Y23.117 F9000
G1 F1500
G1 X32.06 Y22.858 E.00963
G1 X32.359 Y22.563 E.01318
G1 X32.874 Y22.281 E.01842
G1 X34.519 Y21.925 E.05276
G1 X35.105 Y21.968 E.01842
G1 X35.499 Y22.113 E.01318
G1 X104.654 Y66.627 E2.57865
G1 X105.038 Y67.071 E.01842
G1 X105.214 Y67.453 E.01318
G1 X105.565 Y69.072 E.05194
G1 X105.522 Y69.658 E.01842
G1 X105.377 Y70.052 E.01318
G1 X87.348 Y98.062 E1.04443
G1 X86.983 Y98.369 E.01495
G1 X86.724 Y98.487 E.00894
G1 X86.086 Y98.616 E.02038
G1 X85.881 Y98.608 E.00643
G1 X85.421 Y98.479 E.015
G1 X14.448 Y52.795 E2.64645
G1 X14.141 Y52.43 E.01495
G1 X14.023 Y52.171 E.00894
G1 X13.894 Y51.534 E.02038
G1 X13.902 Y51.329 E.00643
G1 X14.03 Y50.868 E.015
G1 X31.861 Y23.167 E1.03291
G1 X32.178 Y23.371 F9000
G1 F1500
G1 X32.366 Y23.079 E.0109
G1 X32.567 Y22.878 E.00892
G1 X32.983 Y22.644 E.01496
G1 X34.57 Y22.3 E.05091
G1 X35.045 Y22.341 E.01496
G1 X35.312 Y22.44 E.00892
G1 X104.425 Y66.928 E2.57711
G1 X104.732 Y67.293 E.01496
G1 X104.85 Y67.552 E.00892
G1 X105.19 Y69.123 E.0504
G1 X105.149 Y69.598 E.01496
G1 X105.05 Y69.865 E.00892
G1 X87.048 Y97.831 E1.04282
G1 X86.767 Y98.059 E.01136
G1 X86.626 Y98.122 E.00482
G1 X86.069 Y98.239 E.01785
G1 X85.951 Y98.237 E.00371
G1 X85.598 Y98.145 E.01144
G1 X14.679 Y52.495 E2.64446
G1 X14.451 Y52.214 E.01136
G1 X14.388 Y52.073 E.00482
G1 X14.271 Y51.516 E.01785
G1 X14.273 Y51.398 E.00371
G1 X14.365 Y51.045 E.01144
G1 X32.146 Y23.422 E1.03004
G1 X32.463 Y23.626 F9000
G1 F1500
G1 X32.673 Y23.299 E.01219
G1 X32.781 Y23.189 E.00484
G1 X33.094 Y23.006 E.01136
G1 X34.619 Y22.675 E.04892
G1 X34.979 Y22.713 E.01136
G1 X35.124 Y22.768 E.00484
G1 X104.194 Y67.228 E2.57553
G1 X104.422 Y67.509 E.01136
G1 X104.485 Y67.65 E.00484
G1 X104.815 Y69.172 E.04882
G1 X104.778 Y69.532 E.01136
G1 X104.722 Y69.676 E.00484
G1 X86.75 Y97.597 E1.04113
G1 X86.558 Y97.744 E.00757
G1 X86.04 Y97.863 E.01666
G1 X85.773 Y97.809 E.00856
G1 X14.912 Y52.197 E2.64226
G1 X14.765 Y52.006 E.00757
G1 X14.647 Y51.488 E.01666
G1 X14.701 Y51.22 E.00856
G1 X32.43 Y23.676 E1.02706
G1 X32.747 Y23.88 F9000
G1 F1500
G1 X32.981 Y23.518 E.01352
G1 X33.208 Y23.367 E.00856
G1 X34.664 Y23.051 E.04672
G1 X34.934 Y23.094 E.00856
G1 X103.961 Y67.526 E2.57388
G1 X104.108 Y67.717 E.00757
G1 X104.439 Y69.217 E.04817
G1 X104.396 Y69.487 E.00856
G1 X86.456 Y97.358 E1.03926
G1 X86.394 Y97.401 E.00235
G1 X86.015 Y97.483 E.01215
G1 X85.942 Y97.469 E.00235
G1 X15.152 Y51.903 E2.63964
G1 X15.109 Y51.841 E.00235
G1 X15.027 Y51.463 E.01215
G1 X15.04 Y51.389 E.00235
G1 X32.715 Y23.931 E1.02386
G1 X33.032 Y24.135 F9000
G1 F1500
G1 X33.267 Y23.769 E.01365
G1 X33.329 Y23.726 E.00235
G1 X34.703 Y23.428 E.0441
G1 X34.777 Y23.442 E.00235
G1 X103.721 Y67.82 E2.57081
G1 X103.764 Y67.882 E.00235
G1 X104.062 Y69.256 E.0441
G1 X104.048 Y69.33 E.00235
G1 X86.201 Y97.057 E1.03388
G1 X86.048 Y97.09 E.0049
G1 X15.453 Y51.648 E2.63239
G1 X15.42 Y51.496 E.0049
G1 X32.999 Y24.185 E1.01835
G1 X34 Y24.76 F9000
;TYPE:Perimeter
;WIDTH:0.419999
G1 F1500
G1 X34.521 Y24.647 E.0167
G1 X102.73 Y68.553 E2.54341
G1 X102.843 Y69.074 E.0167
G1 X85.796 Y95.556 E.9875
G1 X16.953 Y51.243 E2.56702
G1 X33.968 Y24.811 E.98562
G1 X33.768 Y24.425 F9000
G1 F1500
G1 X34.593 Y24.246 E.02649
G1 X103.065 Y68.32 E2.5532
G1 X103.244 Y69.146 E.02649
G1 X85.909 Y96.078 E1.00422
G1 X16.432 Y51.356 E2.59067
G1 X33.735 Y24.475 E1.00234
G1 X33.535 Y24.089 F9000
;TYPE:External perimeter
G1 F1500
G1 X34.666 Y23.844 E.03629
G1 X103.401 Y68.088 E2.563
G1 X103.646 Y69.219 E.03629
G1 X86.022 Y96.599 E1.02094
G1 X15.911 Y51.469 E2.61432
G1 X33.503 Y24.14 E1.01906
G1 X33.929 Y24.158 F9000
G1 E-1.4 F2400
;WIPE_START
G1 F7200
G1 X34.666 Y23.844 E-.38018
G1 X35.17 Y24.169 E-.18982
;WIPE_END
G1 E-.03 F2400
G1 X100.443 Y67.225 F9000
G1 E2 F1800
;TYPE:Solid infill
;WIDTH:0.42232
G1 F1500
G1 X102.417 Y69.198 E.08806
G1 X102.207 Y69.525 E.01225
G1 X99.504 Y66.822 E.1206
G1 X97.998 Y65.852 E.0565
G1 X101.997 Y69.851 E.17841
G1 X101.787 Y70.178 E.01225
G1 X96.492 Y64.883 E.23622
G1 X94.986 Y63.914 E.0565
G1 X101.577 Y70.504 E.29403
G1 X101.367 Y70.831 E.01225
G1 X93.48 Y62.944 E.35183
G1 X91.975 Y61.975 E.0565
G1 X101.156 Y71.157 E.40964
G1 X100.946 Y71.483 E.01225
G1 X90.469 Y61.006 E.46745
G1 X88.963 Y60.037 E.0565
G1 X100.736 Y71.81 E.52526
G1 X100.526 Y72.136 E.01225
G1 X87.457 Y59.067 E.58307
G1 X85.951 Y58.098 E.0565
G1 X100.316 Y72.463 E.64088
G1 X100.106 Y72.789 E.01225
G1 X84.445 Y57.129 E.69869
G1 X82.939 Y56.159 E.0565
G1 X99.896 Y73.116 E.75649
G1 X99.686 Y73.442 E.01225
G1 X81.434 Y55.19 E.8143
G1 X79.928 Y54.221 E.0565
G1 X99.475 Y73.768 E.87211
G1 X99.265 Y74.095 E.01225
G1 X78.422 Y53.251 E.92992
G1 X76.916 Y52.282 E.0565
G1 X99.055 Y74.421 E.98773
G1 X98.845 Y74.748 E.01225
G1 X75.41 Y51.313 E1.04554
G1 X73.904 Y50.344 E.0565
G1 X98.635 Y75.074 E1.10335
G1 X98.425 Y75.401 E.01225
G1 X72.398 Y49.374 E1.16115
G1 X70.893 Y48.405 E.0565
G1 X98.215 Y75.727 E1.21896
G1 X98.005 Y76.053 E.01225
G1 X69.387 Y47.436 E1.27677
G1 X67.881 Y46.466 E.0565
G1 X97.794 Y76.38 E1.33458
G1 X97.584 Y76.706 E.01225
G1 X66.375 Y45.497 E1.39239
G1 X64.869 Y44.528 E.0565
G1 X97.374 Y77.033 E1.4502
G1 X97.164 Y77.359 E.01225
G1 X63.363 Y43.558 E1.50801
G1 X61.857 Y42.589 E.0565
G1 X96.954 Y77.686 E1.56581
G1 X96.744 Y78.012 E.01225
G1 X60.352 Y41.62 E1.62362
G1 X58.846 Y40.65 E.0565
G1 X96.534 Y78.338 E1.68143
G1 X96.324 Y78.665 E.01225
G1 X57.34 Y39.681 E1.73924
G1 X55.834 Y38.712 E.0565
G1 X96.113 Y78.991 E1.79705
G1 X95.903 Y79.318 E.01225
G1 X54.328 Y37.743 E1.85486
G1 X52.822 Y36.773 E.0565
G1 X95.693 Y79.644 E1.91267
G1 X95.483 Y79.971 E.01225
G1 X51.316 Y35.804 E1.97047
G1 X49.811 Y34.835 E.0565
G1 X95.273 Y80.297 E2.02828
G1 X95.063 Y80.623 E.01225
G1 X48.305 Y33.865 E2.08609
G1 X46.799 Y32.896 E.0565
G1 X94.853 Y80.95 E2.1439
G1 X94.643 Y81.276 E.01225
G1 X45.293 Y31.927 E2.20171
G1 X43.787 Y30.957 E.0565
G1 X94.433 Y81.603 E2.25952
G1 X94.222 Y81.929 E.01225
G1 X42.281 Y29.988 E2.31733
G1 X40.775 Y29.019 E.0565
G1 X94.012 Y82.256 E2.37513
G1 X93.802 Y82.582 E.01225
G1 X39.27 Y28.05 E2.43294
G1 X37.764 Y27.08 E.0565
G1 X93.592 Y82.909 E2.49075
G1 X93.382 Y83.235 E.01225
G1 X36.258 Y26.111 E2.54856
G1 X34.752 Y25.142 E.0565
G1 X93.172 Y83.561 E2.60637
G1 X92.962 Y83.888 E.01225
G1 X34.145 Y25.071 E2.62407
G1 X33.935 Y25.398 E.01225
G1 X92.752 Y84.214 E2.62407
G1 X92.541 Y84.541 E.01225
G1 X33.725 Y25.724 E2.62407
G1 X33.515 Y26.051 E.01225
G1 X92.331 Y84.867 E2.62407
G1 X92.121 Y85.194 E.01225
G1 X33.305 Y26.377 E2.62407
G1 X33.095 Y26.703 E.01225
G1 X91.911 Y85.52 E2.62407
G1 X91.701 Y85.846 E.01225
G1 X32.884 Y27.03 E2.62407
G1 X32.674 Y27.356 E.01225
G1 X91.491 Y86.173 E2.62407
G1 X91.281 Y86.499 E.01225
G1 X32.464 Y27.683 E2.62407
G1 X32.254 Y28.009 E.01225
G1 X91.071 Y86.826 E2.62407
G1 X90.86 Y87.152 E.01225
G1 X32.044 Y28.336 E2.62407
G1 X31.834 Y28.662 E.01225
G1 X90.65 Y87.479 E2.62407
G1 X90.44 Y87.805 E.01225
G1 X31.624 Y28.989 E2.62407
G1 X31.414 Y29.315 E.01225
G1 X90.23 Y88.131 E2.62407
G1 X90.02 Y88.458 E.01225
G1 X31.204 Y29.641 E2.62407
G1 X30.993 Y29.968 E.01225
G1 X89.81 Y88.784 E2.62407
G1 X89.6 Y89.111 E.01225
G1 X30.783 Y30.294 E2.62407
G1 X30.573 Y30.621 E.01225
G1 X89.39 Y89.437 E2.62407
G1 X89.18 Y89.764 E.01225
G1 X30.363 Y30.947 E2.62407
G1 X30.153 Y31.274 E.01225
G1 X88.969 Y90.09 E2.62407
G1 X88.759 Y90.416 E.01225
G1 X29.943 Y31.6 E2.62407
G1 X29.733 Y31.926 E.01225
G1 X88.549 Y90.743 E2.62407
G1 X88.339 Y91.069 E.01225
G1 X29.523 Y32.253 E2.62407
G1 X29.312 Y32.579 E.01225
G1 X88.129 Y91.396 E2.62407
G1 X87.919 Y91.722 E.01225
G1 X29.102 Y32.906 E2.62407
G1 X28.892 Y33.232 E.01225
G1 X87.709 Y92.049 E2.62407
G1 X87.499 Y92.375 E.01225
G1 X28.682 Y33.559 E2.62407
G1 X28.472 Y33.885 E.01225
G1 X87.288 Y92.701 E2.62407
G1 X87.078 Y93.028 E.01225
G1 X28.262 Y34.211 E2.62407
G1 X28.052 Y34.538 E.01225
G1 X86.868 Y93.354 E2.62407
G1 X86.658 Y93.681 E.01225
G1 X27.842 Y34.864 E2.62407
G1 X27.631 Y35.191 E.01225
G1 X86.448 Y94.007 E2.62407
G1 X86.238 Y94.334 E.01225
G1 X27.421 Y35.517 E2.62407
G1 X27.211 Y35.844 E.01225
G1 X86.028 Y94.66 E2.62407
G1 X85.818 Y94.986 E.01225
G1 X27.001 Y36.17 E2.62407
G1 X26.791 Y36.496 E.01225
G1 X84.981 Y94.687 E2.59613
G1 X83.475 Y93.717 E.0565
G1 X26.581 Y36.823 E2.53832
G1 X26.371 Y37.149 E.01225
G1 X81.97 Y92.748 E2.48051
G1 X80.464 Y91.779 E.0565
G1 X26.161 Y37.476 E2.4227
G1 X25.95 Y37.802 E.01225
G1 X78.958 Y90.809 E2.3649
G1 X77.452 Y89.84 E.0565
G1 X25.74 Y38.129 E2.30709
G1 X25.53 Y38.455 E.01225
G1 X75.946 Y88.871 E2.24928
G1 X74.44 Y87.902 E.0565
G1 X25.32 Y38.781 E2.19147
G1 X25.11 Y39.108 E.01225
