; generated by PrusaSlicer 2.5.0+win64 on 2023-01-26 at 04:58:35 UTC


;
;

;
;
; 

; external perimeters extrusion width = 0.42mm
; perimeters extrusion width = 0.44mm
; infill extrusion width = 0.44mm
; solid infill extrusion width = 0.44mm
; top infill extrusion width = 0.40mm
; first layer extrusion width = 0.42mm

M107
M104 S210 ; set temperature
;TYPE:Custom
; You can use following code instead if your PRINT_START macro support Chamber and print area bedmesh
PRINT_START EXTRUDER=210
M109 S210 ; set temperature and wait for it to be reached
G21 ; set units to millimeters
G90 ; use absolute coordinates
M83 ; use relative distances for extrusion
; Filament gcode
M107
;LAYER_CHANGE
;Z:0.2
;HEIGHT:0.2
;BEFORE_LAYER_CHANGE
G92 E0
;0.2


G1 E-2 F2400
G1 Z.2 F9000
;AFTER_LAYER_CHANGE
;0.2
G1 X23.614 Y31.109
G1 E2 F1800
M204 S500
;TYPE:Skirt/Brim
;WIDTH:0.42
G1 F1200
G1 X25.029 Y30.297 E.05115
G1 X25.951 Y30.169 E.0292
G1 X93.951 Y30.169 E2.13209
G1 X95.534 Y30.563 E.05115
G1 X96.289 Y31.109 E.0292
G1 X101.289 Y35.905 E.21723
G1 X102.159 Y37.285 E.05115
G1 X102.328 Y38.342 E.03356
G1 X102.328 Y75.75 E1.17291
G1 X101.934 Y77.333 E.05115
G1 X101.289 Y78.187 E.03356
G1 X96.289 Y82.983 E.21723
G1 X94.874 Y83.795 E.05115
G1 X93.951 Y83.923 E.0292
G1 X25.951 Y83.923 E2.13209
G1 X24.368 Y83.529 E.05115
G1 X23.614 Y82.983 E.0292
G1 X18.614 Y78.187 E.21723
G1 X17.744 Y76.807 E.05115
G1 X17.574 Y75.75 E.03356
G1 X17.574 Y38.342 E1.17291
G1 X17.968 Y36.759 E.05115
G1 X18.614 Y35.905 E.03356
G1 X23.57 Y31.15 E.21535
G1 E-1.4 F2400
;WIPE_START
G1 F7200
G1 X25.029 Y30.297 E-.53509
G1 X25.138 Y30.282 E-.03491
;WIPE_END
G1 E-.03 F2400
G1 X26.379 Y34.61 F9000
G1 E2 F1800
;TYPE:Perimeter
;WIDTH:0.419999
G1 F1200
G1 X54.523 Y34.61 E.88244
G1 X59.299 Y39.19 E.20747
G1 X59.613 Y39.39 E.01168
G1 X59.951 Y39.453 E.01078
G1 X60.289 Y39.39 E.01078
G1 X60.604 Y39.19 E.01168
G1 X65.379 Y34.61 E.20747
G1 X93.523 Y34.61 E.88244
G1 X97.887 Y38.796 E.18959
G1 X97.887 Y75.296 E1.14445
G1 X93.523 Y79.482 E.18959
G1 X65.379 Y79.482 E.88244
G1 X60.604 Y74.901 E.20747
G1 X60.289 Y74.702 E.01168
G1 X59.951 Y74.639 E.01078
G1 X59.613 Y74.702 E.01078
G1 X59.299 Y74.901 E.01168
G1 X54.523 Y79.482 E.20747
G1 X26.379 Y79.482 E.88244
G1 X22.015 Y75.296 E.18959
G1 X22.015 Y38.796 E1.14445
G1 X26.336 Y34.652 E.1877
G1 X26.227 Y34.233 F9000
G1 F1200
G1 X54.675 Y34.233 E.89195
G1 X59.56 Y38.918 E.21222
G1 X59.811 Y39.058 E.00901
G1 X60.092 Y39.058 E.0088
G1 X60.343 Y38.918 E.00901
G1 X65.227 Y34.233 E.21222
G1 X93.675 Y34.233 E.89195
G1 X98.264 Y38.635 E.19938
G1 X98.264 Y75.457 E1.15453
G1 X93.675 Y79.859 E.19938
G1 X65.227 Y79.859 E.89195
G1 X60.343 Y75.173 E.21222
G1 X60.092 Y75.034 E.00901
G1 X59.811 Y75.034 E.0088
G1 X59.56 Y75.173 E.00901
G1 X54.675 Y79.859 E.21222
G1 X26.227 Y79.859 E.89195
G1 X21.638 Y75.457 E.19938
G1 X21.638 Y38.635 E1.15453
G1 X26.184 Y34.274 E.1975
G1 X26.076 Y33.856 F9000
;TYPE:External perimeter
G1 F1200
G1 X54.827 Y33.856 E.90146
G1 X59.821 Y38.646 E.21698
G1 X59.927 Y38.697 E.0037
G1 X60.082 Y38.646 E.0051
G1 X65.076 Y33.856 E.21698
G1 X93.827 Y33.856 E.90146
G1 X98.641 Y38.474 E.20918
G1 X98.641 Y75.618 E1.16461
G1 X93.827 Y80.236 E.20918
G1 X65.076 Y80.236 E.90146
G1 X60.082 Y75.446 E.21698
G1 X59.975 Y75.395 E.0037
G1 X59.821 Y75.446 E.0051
G1 X54.827 Y80.236 E.21698
G1 X26.076 Y80.236 E.90146
G1 X21.261 Y75.618 E.20918
G1 X21.261 Y38.474 E1.16461
G1 X26.033 Y33.897 E.2073
G1 X26.414 Y34.069 F9000
G1 E-1.4 F2400
;WIPE_START
G1 F7200
G1 X27.833 Y33.895 E-.57
;WIPE_END
G1 E-.03 F2400
G1 X92.876 Y34.731 F9000
G1 E2 F1800
;TYPE:Solid infill
;WIDTH:0.420318
G1 F1200
G1 X97.597 Y39.451 E.20949
G1 X97.597 Y39.985 E.01675
G1 X92.512 Y34.9 E.22565
G1 X91.979 Y34.9 E.01675
G1 X97.597 Y40.519 E.24933
G1 X97.597 Y41.052 E.01675
G1 X91.445 Y34.9 E.27302
G1 X90.911 Y34.9 E.01675
G1 X97.597 Y41.586 E.2967
G1 X97.597 Y42.12 E.01675
G1 X90.377 Y34.9 E.32039
G1 X89.844 Y34.9 E.01675
G1 X97.597 Y42.653 E.34408
G1 X97.597 Y43.187 E.01675
G1 X89.31 Y34.9 E.36776
G1 X88.776 Y34.9 E.01675
G1 X97.597 Y43.721 E.39145
G1 X97.597 Y44.255 E.01675
G1 X88.242 Y34.9 E.41513
G1 X87.709 Y34.9 E.01675
G1 X97.597 Y44.788 E.43882
G1 X97.597 Y45.322 E.01675
G1 X87.175 Y34.9 E.46251
G1 X86.641 Y34.9 E.01675
G1 X97.597 Y45.856 E.48619
G1 X97.597 Y46.39 E.01675
G1 X86.108 Y34.9 E.50988
G1 X85.574 Y34.9 E.01675
G1 X97.597 Y46.923 E.53356
G1 X97.597 Y47.457 E.01675
G1 X85.04 Y34.9 E.55725
G1 X84.506 Y34.9 E.01675
G1 X97.597 Y47.991 E.58094
G1 X97.597 Y48.524 E.01675
G1 X83.973 Y34.9 E.60462
G1 X83.439 Y34.9 E.01675
G1 X97.597 Y49.058 E.62831
G1 X97.597 Y49.592 E.01675
G1 X82.905 Y34.9 E.652
G1 X82.372 Y34.9 E.01675
G1 X97.597 Y50.126 E.67568
G1 X97.597 Y50.659 E.01675
G1 X81.838 Y34.9 E.69937
G1 X81.304 Y34.9 E.01675
G1 X97.597 Y51.193 E.72305
G1 X97.597 Y51.727 E.01675
G1 X80.77 Y34.9 E.74674
G1 X80.237 Y34.9 E.01675
G1 X97.597 Y52.26 E.77043
G1 X97.597 Y52.794 E.01675
G1 X79.703 Y34.9 E.79411
G1 X79.169 Y34.9 E.01675
G1 X97.597 Y53.328 E.8178
G1 X97.597 Y53.862 E.01675
G1 X78.635 Y34.9 E.84148
G1 X78.102 Y34.9 E.01675
G1 X97.597 Y54.395 E.86517
G1 X97.597 Y54.929 E.01675
G1 X77.568 Y34.9 E.88886
G1 X77.034 Y34.9 E.01675
G1 X97.597 Y55.463 E.91254
G1 X97.597 Y55.997 E.01675
G1 X76.501 Y34.9 E.93623
G1 X75.967 Y34.9 E.01675
G1 X97.597 Y56.53 E.95991
G1 X97.597 Y57.064 E.01675
G1 X75.433 Y34.9 E.9836
G1 X74.899 Y34.9 E.01675
G1 X97.597 Y57.598 E1.00729
G1 X97.597 Y58.131 E.01675
G1 X74.366 Y34.9 E1.03097
G1 X73.832 Y34.9 E.01675
G1 X97.597 Y58.665 E1.05466
G1 X97.597 Y59.199 E.01675
G1 X73.298 Y34.9 E1.07834
G1 X72.765 Y34.9 E.01675
G1 X97.597 Y59.733 E1.10203
G1 X97.597 Y60.266 E.01675
G1 X72.231 Y34.9 E1.12572
G1 X71.697 Y34.9 E.01675
G1 X97.597 Y60.8 E1.1494
G1 X97.597 Y61.334 E.01675
G1 X71.163 Y34.9 E1.17309
G1 X70.63 Y34.9 E.01675
G1 X97.597 Y61.867 E1.19678
G1 X97.597 Y62.401 E.01675
G1 X70.096 Y34.9 E1.22046
G1 X69.562 Y34.9 E.01675
G1 X97.597 Y62.935 E1.24415
G1 X97.597 Y63.469 E.01675
G1 X69.028 Y34.9 E1.26783
G1 X68.495 Y34.9 E.01675
G1 X97.597 Y64.002 E1.29152
G1 X97.597 Y64.536 E.01675
G1 X67.961 Y34.9 E1.31521
G1 X67.427 Y34.9 E.01675
G1 X97.597 Y65.07 E1.33889
G1 X97.597 Y65.603 E.01675
G1 X66.894 Y34.9 E1.36258
G1 X66.36 Y34.9 E.01675
G1 X97.597 Y66.137 E1.38626
G1 X97.597 Y66.671 E.01675
G1 X65.826 Y34.9 E1.40995
G1 X65.496 Y34.9 E.01037
G1 X65.392 Y35 E.00451
G1 X97.597 Y67.205 E1.42922
G1 X97.597 Y67.738 E.01675
G1 X65.12 Y35.261 E1.44131
G1 X64.847 Y35.522 E.01185
G1 X97.597 Y68.272 E1.4534
G1 X97.597 Y68.806 E.01675
G1 X64.575 Y35.784 E1.46549
G1 X64.302 Y36.045 E.01185
G1 X97.597 Y69.34 E1.47758
G1 X97.597 Y69.873 E.01675
G1 X64.03 Y36.306 E1.48967
G1 X63.757 Y36.568 E.01185
G1 X97.597 Y70.407 E1.50177
G1 X97.597 Y70.941 E.01675
G1 X63.485 Y36.829 E1.51386
G1 X63.212 Y37.09 E.01185
G1 X97.597 Y71.474 E1.52595
G1 X97.597 Y72.008 E.01675
G1 X62.94 Y37.351 E1.53804
G1 X62.667 Y37.613 E.01185
G1 X97.597 Y72.542 E1.55013
G1 X97.597 Y73.076 E.01675
G1 X62.395 Y37.874 E1.56222
G1 X62.123 Y38.135 E.01185
G1 X97.597 Y73.609 E1.57431
G1 X97.597 Y74.143 E.01675
G1 X61.85 Y38.396 E1.58641
G1 X61.578 Y38.658 E.01185
G1 X97.597 Y74.677 E1.5985
G1 X97.597 Y75.172 E.01555
G1 X97.577 Y75.191 E.00085
G1 X61.305 Y38.919 E1.60972
G1 X61.033 Y39.18 E.01185
G1 X97.305 Y75.452 E1.60973
G1 X97.032 Y75.714 E.01185
G1 X60.759 Y39.441 E1.60976
G1 X60.584 Y39.569 E.0068
G1 X60.429 Y39.644 E.00542
G1 X96.76 Y75.975 E1.61233
G1 X96.488 Y76.236 E.01185
G1 X59.991 Y39.74 E1.61967
G1 X59.743 Y39.726 E.00781
G1 X59.509 Y39.662 E.0076
G1 X59.318 Y39.569 E.00668
G1 X59.2 Y39.482 E.0046
G1 X96.215 Y76.498 E1.64272
G1 X95.943 Y76.759 E.01185
G1 X54.084 Y34.9 E1.85764
G1 X53.551 Y34.9 E.01675
G1 X95.67 Y77.02 E1.86924
G1 X95.398 Y77.281 E.01185
G1 X53.017 Y34.9 E1.88083
G1 X52.483 Y34.9 E.01675
G1 X95.125 Y77.543 E1.89243
G1 X94.853 Y77.804 E.01185
G1 X51.949 Y34.9 E1.90403
G1 X51.416 Y34.9 E.01675
G1 X94.581 Y78.065 E1.91562
G1 X94.308 Y78.327 E.01185
G1 X50.882 Y34.9 E1.92722
G1 X50.348 Y34.9 E.01675
G1 X94.036 Y78.588 E1.93881
G1 X93.763 Y78.849 E.01185
G1 X49.815 Y34.9 E1.95041
G1 X49.281 Y34.9 E.01675
G1 X93.491 Y79.111 E1.96201
G1 X93.407 Y79.191 E.00367
G1 X93.038 Y79.191 E.01157
G1 X48.747 Y34.9 E1.9656
G1 X48.213 Y34.9 E.01675
G1 X92.504 Y79.191 E1.9656
G1 X91.971 Y79.191 E.01675
G1 X47.68 Y34.9 E1.9656
G1 X47.146 Y34.9 E.01675
G1 X91.437 Y79.191 E1.9656
G1 X90.903 Y79.191 E.01675
G1 X46.612 Y34.9 E1.9656
G1 X46.078 Y34.9 E.01675
G1 X90.369 Y79.191 E1.9656
G1 X89.836 Y79.191 E.01675
G1 X45.545 Y34.9 E1.9656
G1 X45.011 Y34.9 E.01675
G1 X89.302 Y79.191 E1.9656
G1 X88.768 Y79.191 E.01675
G1 X44.477 Y34.9 E1.9656
G1 X43.944 Y34.9 E.01675
G1 X88.235 Y79.191 E1.9656
G1 X87.701 Y79.191 E.01675
G1 X43.41 Y34.9 E1.9656
G1 X42.876 Y34.9 E.01675
G1 X87.167 Y79.191 E1.9656
G1 X86.633 Y79.191 E.01675
G1 X42.342 Y34.9 E1.9656
G1 X41.809 Y34.9 E.01675
G1 X86.1 Y79.191 E1.9656
G1 X85.566 Y79.191 E.01675
G1 X41.275 Y34.9 E1.9656
G1 X40.741 Y34.9 E.01675
G1 X85.032 Y79.191 E1.9656
G1 X84.499 Y79.191 E.01675
G1 X40.208 Y34.9 E1.9656
G1 X39.674 Y34.9 E.01675
G1 X83.965 Y79.191 E1.9656
G1 X83.431 Y79.191 E.01675
G1 X39.14 Y34.9 E1.9656
G1 X38.606 Y34.9 E.01675
G1 X82.897 Y79.191 E1.9656
G1 X82.364 Y79.191 E.01675
G1 X38.073 Y34.9 E1.9656
G1 X37.539 Y34.9 E.01675
G1 X81.83 Y79.191 E1.9656
G1 X81.296 Y79.191 E.01675
G1 X37.005 Y34.9 E1.9656
G1 X36.471 Y34.9 E.01675
G1 X80.762 Y79.191 E1.9656
G1 X80.229 Y79.191 E.01675
G1 X35.938 Y34.9 E1.9656
G1 X35.404 Y34.9 E.01675
G1 X79.695 Y79.191 E1.9656
G1 X79.161 Y79.191 E.01675
G1 X34.87 Y34.9 E1.9656
G1 X34.337 Y34.9 E.01675
G1 X78.628 Y79.191 E1.9656
G1 X78.094 Y79.191 E.01675
G1 X33.803 Y34.9 E1.9656
G1 X33.269 Y34.9 E.01675
G1 X77.56 Y79.191 E1.9656
G1 X77.026 Y79.191 E.01675
G1 X32.735 Y34.9 E1.9656
G1 X32.202 Y34.9 E.01675
G1 X76.493 Y79.191 E1.9656
G1 X75.959 Y79.191 E.01675
G1 X31.668 Y34.9 E1.9656
G1 X31.134 Y34.9 E.01675
G1 X75.425 Y79.191 E1.9656
G1 X74.892 Y79.191 E.01675
G1 X30.601 Y34.9 E1.9656
G1 X30.067 Y34.9 E.01675
G1 X74.358 Y79.191 E1.9656
G1 X73.824 Y79.191 E.01675
G1 X29.533 Y34.9 E1.9656
G1 X28.999 Y34.9 E.01675
G1 X73.29 Y79.191 E1.9656
G1 X72.757 Y79.191 E.01675
G1 X28.466 Y34.9 E1.9656
G1 X27.932 Y34.9 E.01675
G1 X72.223 Y79.191 E1.9656
G1 X71.689 Y79.191 E.01675
G1 X27.398 Y34.9 E1.9656
G1 X26.865 Y34.9 E.01675
G1 X71.156 Y79.191 E1.9656
G1 X70.622 Y79.191 E.01675
G1 X26.412 Y34.981 E1.96201
G1 X26.139 Y35.242 E.01185
G1 X70.088 Y79.191 E1.95041
G1 X69.554 Y79.191 E.01675
G1 X25.867 Y35.504 E1.93882
G1 X25.594 Y35.765 E.01185
G1 X69.021 Y79.191 E1.92722
G1 X68.487 Y79.191 E.01675
G1 X25.322 Y36.026 E1.91562
G1 X25.049 Y36.288 E.01185
G1 X67.953 Y79.191 E1.90403
G1 X67.419 Y79.191 E.01675
G1 X24.777 Y36.549 E1.89243
G1 X24.505 Y36.81 E.01185
G1 X66.886 Y79.191 E1.88084
G1 X66.352 Y79.191 E.01675
G1 X24.232 Y37.072 E1.86924
G1 X23.96 Y37.333 E.01185
G1 X65.818 Y79.191 E1.85764
G1 X65.496 Y79.191 E.01012
G1 X60.703 Y74.61 E.20805
G1 X23.687 Y37.594 E1.64274
G1 X23.415 Y37.855 E.01185
G1 X59.911 Y74.352 E1.61967
G1 X59.743 Y74.366 E.0053
G1 X59.473 Y74.448 E.00884
G1 X23.143 Y38.117 E1.61233
G1 X22.87 Y38.378 E.01185
G1 X59.143 Y74.651 E1.60976
G1 X58.87 Y74.912 E.01185
G1 X22.598 Y38.639 E1.60973
G1 X22.325 Y38.901 E.01185
G1 X58.597 Y75.173 E1.60972
G1 X58.325 Y75.434 E.01185
G1 X22.306 Y39.415 E1.5985
G1 X22.306 Y39.949 E.01675
G1 X58.052 Y75.695 E1.58641
G1 X57.78 Y75.957 E.01185
G1 X22.306 Y40.482 E1.57432
G1 X22.306 Y41.016 E.01675
G1 X57.508 Y76.218 E1.56223
G1 X57.235 Y76.479 E.01185
G1 X22.306 Y41.55 E1.55013
G1 X22.306 Y42.083 E.01675
G1 X56.963 Y76.74 E1.53804
G1 X56.69 Y77.002 E.01185
G1 X22.306 Y42.617 E1.52595
G1 X22.306 Y43.151 E.01675
G1 X56.418 Y77.263 E1.51386
G1 X56.145 Y77.524 E.01185
G1 X22.306 Y43.685 E1.50177
G1 X22.306 Y44.218 E.01675
G1 X55.873 Y77.785 E1.48968
G1 X55.6 Y78.047 E.01185
G1 X22.306 Y44.752 E1.47759
G1 X22.306 Y45.286 E.01675
G1 X55.328 Y78.308 E1.46549
G1 X55.055 Y78.569 E.01185
G1 X22.306 Y45.82 E1.4534
G1 X22.306 Y46.353 E.01675
G1 X54.783 Y78.83 E1.44131
G1 X54.511 Y79.092 E.01185
G1 X22.306 Y46.887 E1.42922
G1 X22.306 Y47.421 E.01675
G1 X54.076 Y79.191 E1.40996
G1 X53.543 Y79.191 E.01675
G1 X22.306 Y47.954 E1.38627
G1 X22.306 Y48.488 E.01675
G1 X53.009 Y79.191 E1.36258
G1 X52.475 Y79.191 E.01675
G1 X22.306 Y49.022 E1.3389
G1 X22.306 Y49.556 E.01675
G1 X51.942 Y79.191 E1.31521
G1 X51.408 Y79.191 E.01675
G1 X22.306 Y50.089 E1.29153
G1 X22.306 Y50.623 E.01675
G1 X50.874 Y79.191 E1.26784
G1 X50.34 Y79.191 E.01675
G1 X22.306 Y51.157 E1.24415
G1 X22.306 Y51.69 E.01675
G1 X49.807 Y79.191 E1.22047
G1 X49.273 Y79.191 E.01675
G1 X22.306 Y52.224 E1.19678
G1 X22.306 Y52.758 E.01675
G1 X48.739 Y79.191 E1.17309
G1 X48.205 Y79.191 E.01675
G1 X22.306 Y53.292 E1.14941
G1 X22.306 Y53.825 E.01675
G1 X47.672 Y79.191 E1.12572
G1 X47.138 Y79.191 E.01675
G1 X22.306 Y54.359 E1.10204
G1 X22.306 Y54.893 E.01675
G1 X46.604 Y79.191 E1.07835
G1 X46.071 Y79.191 E.01675
G1 X22.306 Y55.426 E1.05466
G1 X22.306 Y55.96 E.01675
G1 X45.537 Y79.191 E1.03098
G1 X45.003 Y79.191 E.01675
G1 X22.306 Y56.494 E1.00729
G1 X22.306 Y57.028 E.01675
G1 X44.469 Y79.191 E.98361
G1 X43.936 Y79.191 E.01675
G1 X22.306 Y57.561 E.95992
G1 X22.306 Y58.095 E.01675
G1 X43.402 Y79.191 E.93623
G1 X42.868 Y79.191 E.01675
G1 X22.306 Y58.629 E.91255
G1 X22.306 Y59.163 E.01675
G1 X42.335 Y79.191 E.88886
G1 X41.801 Y79.191 E.01675
G1 X22.306 Y59.696 E.86518
G1 X22.306 Y60.23 E.01675
G1 X41.267 Y79.191 E.84149
G1 X40.733 Y79.191 E.01675
G1 X22.306 Y60.764 E.8178
G1 X22.306 Y61.297 E.01675
G1 X40.2 Y79.191 E.79412
G1 X39.666 Y79.191 E.01675
G1 X22.306 Y61.831 E.77043
G1 X22.306 Y62.365 E.01675
G1 X39.132 Y79.191 E.74675
G1 X38.599 Y79.191 E.01675
G1 X22.306 Y62.899 E.72306
G1 X22.306 Y63.432 E.01675
G1 X38.065 Y79.191 E.69937
G1 X37.531 Y79.191 E.01675
G1 X22.306 Y63.966 E.67569
G1 X22.306 Y64.5 E.01675
G1 X36.997 Y79.191 E.652
G1 X36.464 Y79.191 E.01675
G1 X22.306 Y65.033 E.62831
G1 X22.306 Y65.567 E.01675
G1 X35.93 Y79.191 E.60463
G1 X35.396 Y79.191 E.01675
G1 X22.306 Y66.101 E.58094
G1 X22.306 Y66.635 E.01675
G1 X34.862 Y79.191 E.55726
G1 X34.329 Y79.191 E.01675
G1 X22.306 Y67.168 E.53357
G1 X22.306 Y67.702 E.01675
G1 X33.795 Y79.191 E.50988
G1 X33.261 Y79.191 E.01675
G1 X22.306 Y68.236 E.4862
G1 X22.306 Y68.77 E.01675
G1 X32.728 Y79.191 E.46251
G1 X32.194 Y79.191 E.01675
G1 X22.306 Y69.303 E.43883
G1 X22.306 Y69.837 E.01675
G1 X31.66 Y79.191 E.41514
G1 X31.126 Y79.191 E.01675
G1 X22.306 Y70.371 E.39145
G1 X22.306 Y70.904 E.01675
G1 X30.593 Y79.191 E.36777
G1 X30.059 Y79.191 E.01675
G1 X22.306 Y71.438 E.34408
G1 X22.306 Y71.972 E.01675
G1 X29.525 Y79.191 E.3204
G1 X28.992 Y79.191 E.01675
G1 X22.306 Y72.506 E.29671
G1 X22.306 Y73.039 E.01675
G1 X28.458 Y79.191 E.27302
G1 X27.924 Y79.191 E.01675
G1 X22.306 Y73.573 E.24934
G1 X22.306 Y74.107 E.01675
G1 X27.39 Y79.191 E.22565
G1 X26.857 Y79.191 E.01675
G1 X22.136 Y74.471 E.2095
;LAYER_CHANGE
;Z:0.4
;HEIGHT:0.2
;BEFORE_LAYER_CHANGE
G92 E0
;0.4


G1 E-1.4 F2400
;WIPE_START
G1 F7200
G1 X23.409 Y75.744 E-.57
;WIPE_END
G1 E-.03 F2400
G1 Z.4 F9000
;AFTER_LAYER_CHANGE
;0.4
G1 X19.89 Y79.412
G1 E2 F1800
;TYPE:Skirt/Brim
;WIDTH:0.42
G1 F2400
G1 X18.614 Y78.187 E.05547
G1 X17.744 Y76.807 E.05115
G1 X17.574 Y75.75 E.03356
G1 X17.574 Y38.342 E1.17291
G1 X17.968 Y36.759 E.05115
G1 X18.614 Y35.905 E.03356
G1 X23.614 Y31.109 E.21723
G1 X25.029 Y30.297 E.05115
G1 X25.951 Y30.169 E.0292
G1 X93.951 Y30.169 E2.13209
G1 X95.534 Y30.563 E.05115
G1 X96.289 Y31.109 E.0292
G1 X101.289 Y35.905 E.21723
G1 X102.159 Y37.285 E.05115
G1 X102.328 Y38.342 E.03356
G1 X102.328 Y75.75 E1.17291
G1 X101.934 Y77.333 E.05115
G1 X101.289 Y78.187 E.03356
G1 X96.289 Y82.983 E.21723
G1 X94.874 Y83.795 E.05115
G1 X93.951 Y83.923 E.0292
G1 X25.951 Y83.923 E2.13209
G1 X24.368 Y83.529 E.05115
G1 X23.614 Y82.983 E.0292
G1 X19.934 Y79.453 E.15988
G1 E-1.4
;WIPE_START
G1 F7200
G1 X18.635 Y78.207 E-.57
;WIPE_END
G1 E-.03 F2400
G1 X21.945 Y75.326 F9000
G1 E2 F1800
;TYPE:Perimeter
;WIDTH:0.439999
G1 F2400
G1 X21.945 Y38.766 E1.20712
