; generated by PrusaSlicer 2.5.0+win64 on 2023-01-25 at 07:09:18 UTC


;
;

;
;
; 

; external perimeters extrusion width = 0.42mm
; perimeters extrusion width = 0.44mm
; infill extrusion width = 0.44mm
; solid infill extrusion width = 0.44mm
; top infill extrusion width = 0.40mm
; first layer extrusion width = 0.42mm

M107
M104 S210 ; set temperature
;TYPE:Custom
; You can use following code instead if your PRINT_START macro support Chamber and print area bedmesh
PRINT_START EXTRUDER=210
M109 S210 ; set temperature and wait for it to be reached
G21 ; set units to millimeters
G90 ; use absolute coordinates
M83 ; use relative distances for extrusion
; Filament gcode
M107
;LAYER_CHANGE
;Z:0.2
;HEIGHT:0.2
;BEFORE_LAYER_CHANGE
G92 E0
;0.2


G1 Z.2 F9000
;AFTER_LAYER_CHANGE
;0.2
G1 E-2 F2400
G1 X32.12 Y37.602 F9000
G1 E2 F1800
M204 S500
;TYPE:Skirt/Brim
;WIDTH:0.42
G1 F1200
G1 X32.309 Y37.441 E.00779
G1 X33.552 Y36.507 E.04877
G1 X35.5 Y35.332 E.0713
G1 X37.567 Y34.33 E.07203
G1 X39.549 Y33.574 E.06651
G1 X41.58 Y32.991 E.06626
G1 X43.631 Y32.604 E.06543
G1 X65.622 Y29.261 E.69744
G1 X68.566 Y29.047 E.09257
G1 X70.183 Y29.126 E.05074
G1 X71.853 Y29.362 E.0529
G1 X73.359 Y29.71 E.04844
G1 X74.746 Y30.149 E.04562
G1 X76.337 Y30.798 E.05387
G1 X77.716 Y31.507 E.04863
G1 X78.929 Y32.247 E.04455
G1 X80.155 Y33.125 E.04729
G1 X81.239 Y34.024 E.04415
G1 X82.354 Y35.083 E.04822
G1 X83.48 Y36.327 E.05261
G1 X84.422 Y37.541 E.04818
G1 X85.358 Y38.915 E.05212
G1 X86.275 Y40.47 E.05661
G1 X87.014 Y41.958 E.05207
G1 X87.68 Y43.545 E.05398
G1 X88.187 Y45.014 E.04873
G1 X88.72 Y47.015 E.06492
G1 X89.072 Y48.805 E.05719
G1 X89.347 Y50.801 E.06318
G1 X89.516 Y52.806 E.06309
G1 X89.578 Y54.839 E.06376
G1 X89.523 Y56.804 E.06164
G1 X89.347 Y58.75 E.06124
G1 X89.033 Y60.627 E.05968
G1 X88.698 Y62.037 E.04545
G1 X87.73 Y65.022 E.09837
G1 X86.24 Y68.228 E.11087
G1 X84.398 Y71.298 E.11226
G1 X83.329 Y72.791 E.05757
G1 X82.342 Y74.001 E.04895
G1 X81.223 Y75.204 E.05153
G1 X79.89 Y76.431 E.05682
G1 X78.602 Y77.426 E.05102
G1 X77.214 Y78.33 E.05194
G1 X75.561 Y79.198 E.05854
G1 X74.332 Y79.731 E.042
G1 X72.661 Y80.313 E.05547
G1 X71.063 Y80.72 E.05173
G1 X50.508 Y84.724 E.65659
G1 X48.199 Y84.992 E.07288
G1 X46.145 Y85.007 E.06439
G1 X44.17 Y84.828 E.0622
G1 X41.746 Y84.36 E.07741
G1 X39.678 Y83.729 E.06778
G1 X37.665 Y82.894 E.06834
G1 X35.711 Y81.872 E.06913
G1 X33.936 Y80.758 E.06571
G1 X32.049 Y79.351 E.07381
G1 X30.093 Y77.541 E.08356
G1 X28.603 Y75.825 E.07127
G1 X27.147 Y73.737 E.0798
G1 X25.969 Y71.605 E.07636
G1 X24.851 Y69.03 E.08801
G1 X23.899 Y66.25 E.09216
G1 X23.18 Y63.378 E.09283
G1 X22.817 Y60.636 E.08672
G1 X22.754 Y57.83 E.088
G1 X22.915 Y54.963 E.09004
G1 X23.259 Y52.43 E.08015
G1 X23.877 Y49.85 E.08318
G1 X24.655 Y47.632 E.0737
G1 X25.639 Y45.484 E.07407
G1 X26.92 Y43.301 E.07936
G1 X28.219 Y41.51 E.06938
G1 X29.365 Y40.156 E.05561
G1 X30.77 Y38.755 E.06221
G1 X32.074 Y37.641 E.05378
G1 E-1.4 F2400
;WIPE_START
G1 F7200
G1 X32.309 Y37.441 E-.0977
G1 X33.501 Y36.545 E-.4723
;WIPE_END
G1 E-.03 F2400
G1 X34.368 Y40.632 F9000
G1 E2 F1800
G1 F1200
G1 X35.67 Y39.658 E.05101
G1 X36.782 Y38.947 E.04138
G1 X37.611 Y38.489 E.02969
G1 X38.497 Y38.052 E.03096
G1 X39.522 Y37.61 E.03501
G1 X40.682 Y37.18 E.03879
G1 X41.653 Y36.878 E.03189
G1 X42.532 Y36.649 E.02847
G1 X43.421 Y36.467 E.02845
G1 X44.343 Y36.319 E.0293
G1 X45.276 Y36.22 E.02942
G1 X46.424 Y36.17 E.03602
G1 X47.59 Y36.198 E.03657
G1 X48.869 Y36.32 E.04027
G1 X50.439 Y36.568 E.04984
G1 X51.991 Y36.958 E.05017
G1 X52.859 Y37.228 E.0285
G1 X53.988 Y37.64 E.0377
G1 X54.924 Y38.046 E.03197
G1 X55.973 Y38.58 E.03691
G1 X56.541 Y37.966 E.02624
G1 X57.368 Y37.159 E.03622
G1 X58.392 Y36.287 E.04216
G1 X59.512 Y35.487 E.04317
G1 X60.665 Y34.81 E.04192
G1 X61.853 Y34.231 E.04145
G1 X63.072 Y33.759 E.04098
G1 X64.334 Y33.379 E.0413
G1 X65.953 Y33.033 E.05193
G1 X67.672 Y32.851 E.0542
G1 X69.119 Y32.84 E.04535
G1 X70.506 Y32.968 E.04368
G1 X71.881 Y33.229 E.0439
G1 X73.262 Y33.633 E.04509
G1 X74.605 Y34.161 E.04525
G1 X75.905 Y34.823 E.04574
G1 X76.784 Y35.359 E.03229
G1 X77.518 Y35.871 E.02806
G1 X78.545 Y36.687 E.04113
G1 X79.243 Y37.318 E.02949
G1 X79.998 Y38.09 E.03386
G1 X80.862 Y39.096 E.0416
G1 X81.815 Y40.395 E.05051
G1 X82.66 Y41.744 E.04991
G1 X83.031 Y42.417 E.02408
G1 X83.442 Y43.238 E.02881
G1 X84.071 Y44.688 E.04955
G1 X84.563 Y46.089 E.04654
G1 X84.948 Y47.476 E.04515
G1 X85.264 Y48.96 E.04756
G1 X85.51 Y50.536 E.05002
G1 X85.685 Y52.185 E.05199
G1 X85.783 Y53.847 E.05221
G1 X85.797 Y55.374 E.04788
G1 X85.747 Y56.643 E.03982
G1 X85.592 Y58.323 E.05288
G1 X85.312 Y59.962 E.05215
G1 X84.965 Y61.373 E.04556
G1 X84.517 Y62.806 E.04707
G1 X83.978 Y64.22 E.04745
G1 X83.327 Y65.632 E.04876
G1 X82.53 Y67.139 E.05342
G1 X81.707 Y68.513 E.05022
G1 X80.744 Y69.936 E.0539
G1 X79.766 Y71.198 E.05005
G1 X78.705 Y72.376 E.0497
G1 X77.545 Y73.465 E.0499
G1 X76.688 Y74.146 E.03432
G1 X75.944 Y74.669 E.0285
G1 X75.155 Y75.154 E.02905
G1 X74.106 Y75.703 E.0371
G1 X73.053 Y76.173 E.03617
G1 X72.029 Y76.551 E.03422
G1 X70.495 Y76.979 E.04995
G1 X68.917 Y77.252 E.0502
G1 X68.076 Y77.327 E.02646
G1 X67.252 Y77.359 E.02588
G1 X65.845 Y77.325 E.04412
G1 X64.214 Y77.13 E.05149
G1 X62.588 Y76.805 E.05201
G1 X61.393 Y76.441 E.03918
G1 X59.83 Y75.866 E.05221
G1 X59.439 Y75.665 E.01378
G1 X58.353 Y76.691 E.04685
G1 X57.431 Y77.43 E.03706
G1 X56.758 Y77.999 E.02762
G1 X55.635 Y78.769 E.04268
G1 X54.455 Y79.447 E.04266
G1 X53.537 Y79.891 E.03198
G1 X52.588 Y80.281 E.03217
G1 X50.934 Y80.779 E.05416
G1 X49.229 Y81.1 E.05439
G1 X47.784 Y81.229 E.0455
G1 X45.658 Y81.196 E.06667
G1 X44.706 Y81.087 E.03006
G1 X43.762 Y80.929 E.02999
G1 X42.916 Y80.754 E.02708
G1 X41.958 Y80.5 E.03108
G1 X40.953 Y80.172 E.03315
G1 X39.967 Y79.785 E.03322
G1 X39.065 Y79.379 E.03102
G1 X38.256 Y78.967 E.02845
G1 X37.222 Y78.377 E.03734
G1 X36.061 Y77.634 E.04323
G1 X35.265 Y77.072 E.03054
G1 X34.504 Y76.478 E.03028
G1 X33.573 Y75.654 E.03898
G1 X32.901 Y75.008 E.02921
G1 X32.314 Y74.377 E.02701
G1 X31.6 Y73.524 E.03488
G1 X30.98 Y72.686 E.03269
G1 X30.408 Y71.824 E.03244
G1 X29.879 Y70.924 E.03274
G1 X29.367 Y69.953 E.03441
G1 X28.912 Y68.978 E.03374
G1 X28.209 Y67.223 E.0593
G1 X27.716 Y65.8 E.04722
G1 X27.284 Y64.356 E.04726
G1 X27.038 Y63.378 E.0316
G1 X26.837 Y62.368 E.03229
G1 X26.686 Y61.344 E.03247
G1 X26.587 Y60.375 E.03053
G1 X26.528 Y59.176 E.03763
G1 X26.533 Y57.76 E.0444
G1 X26.567 Y56.852 E.02851
G1 X26.679 Y55.29 E.0491
G1 X26.802 Y54.204 E.03425
G1 X26.981 Y53.08 E.03569
G1 X27.218 Y51.971 E.03556
G1 X27.505 Y50.904 E.03464
G1 X27.789 Y50.022 E.02906
G1 X28.204 Y48.936 E.03646
G1 X28.643 Y47.937 E.0342
G1 X29.18 Y46.874 E.03735
G1 X29.726 Y45.925 E.03431
G1 X30.359 Y44.965 E.03606
G1 X31.24 Y43.78 E.0463
G1 X31.897 Y42.99 E.03223
G1 X32.68 Y42.156 E.03587
G1 X33.414 Y41.457 E.03178
G1 X34.322 Y40.672 E.03764
G1 X34.569 Y40.956 F9000
G1 F1200
G1 X35.879 Y39.972 E.05139
G1 X36.97 Y39.274 E.0406
G1 X37.782 Y38.825 E.02909
G1 X38.659 Y38.392 E.03067
G1 X39.658 Y37.962 E.03409
G1 X40.808 Y37.535 E.03848
G1 X41.76 Y37.239 E.03127
G1 X42.622 Y37.015 E.0279
G1 X43.484 Y36.839 E.02761
G1 X44.388 Y36.694 E.02871
G1 X45.311 Y36.595 E.02908
G1 X46.434 Y36.547 E.03526
G1 X47.574 Y36.574 E.03577
G1 X48.827 Y36.695 E.03945
G1 X50.355 Y36.936 E.04852
G1 X51.894 Y37.322 E.04973
G1 X52.742 Y37.586 E.02786
G1 X53.844 Y37.988 E.03676
G1 X54.758 Y38.384 E.03124
G1 X55.73 Y38.88 E.03422
G1 X56.038 Y39.066 E.01126
G1 X56.808 Y38.232 E.03558
G1 X57.627 Y37.433 E.03587
G1 X58.618 Y36.589 E.04081
G1 X59.711 Y35.808 E.04213
G1 X60.838 Y35.146 E.04098
G1 X61.997 Y34.579 E.04046
G1 X63.188 Y34.118 E.04005
G1 X64.435 Y33.742 E.04083
G1 X66.022 Y33.404 E.05089
G1 X67.703 Y33.227 E.05297
G1 X69.093 Y33.216 E.0436
G1 X70.462 Y33.343 E.0431
G1 X71.802 Y33.598 E.04276
G1 X73.147 Y33.992 E.04397
G1 X74.458 Y34.508 E.04417
G1 X75.727 Y35.156 E.04466
G1 X76.583 Y35.678 E.03144
G1 X77.288 Y36.17 E.02697
G1 X78.297 Y36.971 E.04038
G1 X78.977 Y37.586 E.02876
G1 X79.716 Y38.34 E.03311
G1 X80.563 Y39.325 E.04072
G1 X81.5 Y40.601 E.04963
G1 X82.332 Y41.931 E.04919
G1 X82.695 Y42.589 E.02357
G1 X83.103 Y43.403 E.02853
G1 X83.722 Y44.832 E.04884
G1 X84.205 Y46.208 E.04571
G1 X84.58 Y47.561 E.04402
G1 X84.893 Y49.023 E.04689
G1 X85.135 Y50.581 E.04942
G1 X85.309 Y52.22 E.0517
G1 X85.406 Y53.865 E.05165
G1 X85.42 Y55.364 E.04701
G1 X85.371 Y56.614 E.03921
G1 X85.22 Y58.266 E.05203
G1 X84.941 Y59.892 E.05171
G1 X84.6 Y61.277 E.04474
G1 X84.163 Y62.677 E.04598
G1 X83.628 Y64.08 E.04707
G1 X82.991 Y65.461 E.04768
G1 X82.204 Y66.949 E.05279
G1 X81.392 Y68.306 E.04958
G1 X80.442 Y69.71 E.05316
G1 X79.472 Y70.962 E.04964
G1 X78.431 Y72.118 E.04879
G1 X77.293 Y73.185 E.04891
G1 X76.458 Y73.847 E.03342
G1 X75.741 Y74.351 E.02745
G1 X74.963 Y74.83 E.02866
G1 X73.937 Y75.366 E.03629
G1 X72.905 Y75.826 E.03542
G1 X71.906 Y76.194 E.03339
G1 X70.403 Y76.613 E.04893
G1 X68.876 Y76.877 E.04858
G1 X68.048 Y76.951 E.02607
G1 X67.243 Y76.982 E.02525
G1 X65.863 Y76.948 E.04328
G1 X64.281 Y76.759 E.04996
G1 X62.689 Y76.441 E.0509
G1 X61.518 Y76.085 E.03838
G1 X59.972 Y75.516 E.05165
G1 X59.376 Y75.206 E.02107
G1 X58.111 Y76.402 E.05457
G1 X57.191 Y77.139 E.03698
G1 X56.537 Y77.694 E.02687
G1 X55.428 Y78.453 E.04214
G1 X54.285 Y79.11 E.04134
G1 X53.388 Y79.545 E.03124
G1 X52.471 Y79.923 E.03112
G1 X50.835 Y80.415 E.05355
G1 X49.169 Y80.728 E.05316
G1 X47.78 Y80.851 E.04373
G1 X45.692 Y80.82 E.06549
G1 X44.763 Y80.714 E.02931
G1 X43.835 Y80.559 E.02951
G1 X43.008 Y80.389 E.02647
G1 X42.06 Y80.137 E.03075
G1 X41.075 Y79.816 E.03248
G1 X40.109 Y79.436 E.03255
G1 X39.224 Y79.037 E.03045
G1 X38.431 Y78.633 E.02788
G1 X37.421 Y78.057 E.03647
G1 X36.267 Y77.319 E.04294
G1 X35.493 Y76.772 E.02972
G1 X34.749 Y76.192 E.02959
G1 X33.825 Y75.374 E.03868
G1 X33.166 Y74.74 E.02868
G1 X32.6 Y74.131 E.02606
G1 X31.893 Y73.287 E.03455
G1 X31.286 Y72.466 E.032
G1 X30.725 Y71.62 E.03183
G1 X30.21 Y70.744 E.03184
G1 X29.703 Y69.782 E.03413
G1 X29.26 Y68.833 E.03281
G1 X28.56 Y67.087 E.05899
G1 X28.073 Y65.68 E.04667
G1 X27.647 Y64.252 E.04674
G1 X27.405 Y63.291 E.03107
G1 X27.209 Y62.309 E.0314
G1 X27.061 Y61.301 E.03194
G1 X26.963 Y60.352 E.02992
G1 X26.905 Y59.163 E.03731
G1 X26.91 Y57.765 E.04384
G1 X26.943 Y56.875 E.02791
G1 X27.055 Y55.321 E.04888
G1 X27.176 Y54.251 E.03375
G1 X27.352 Y53.144 E.03513
G1 X27.584 Y52.064 E.03463
G1 X27.868 Y51.006 E.03434
G1 X28.143 Y50.152 E.02815
G1 X28.554 Y49.075 E.03616
G1 X28.982 Y48.103 E.03329
G1 X29.515 Y47.049 E.03703
G1 X30.044 Y46.128 E.03329
G1 X30.665 Y45.186 E.03538
G1 X31.54 Y44.01 E.04597
G1 X32.176 Y43.244 E.03122
G1 X32.952 Y42.418 E.03552
G1 X33.671 Y41.733 E.03113
G1 X34.523 Y40.996 E.03535
G1 X34.77 Y41.28 F9000
G1 F1200
G1 X36.088 Y40.285 E.05178
G1 X37.158 Y39.601 E.03981
G1 X37.953 Y39.162 E.02849
G1 X38.822 Y38.732 E.03038
G1 X39.793 Y38.314 E.03317
G1 X40.934 Y37.89 E.03816
G1 X41.868 Y37.6 E.03066
G1 X42.702 Y37.383 E.02702
G1 X43.548 Y37.21 E.02707
G1 X44.433 Y37.068 E.02812
G1 X45.345 Y36.971 E.02873
G1 X46.431 Y36.924 E.0341
G1 X47.558 Y36.951 E.03535
G1 X48.785 Y37.07 E.03864
G1 X50.272 Y37.304 E.0472
G1 X51.797 Y37.687 E.0493
G1 X52.626 Y37.945 E.02722
G1 X53.709 Y38.341 E.03616
G1 X54.603 Y38.728 E.03054
G1 X55.553 Y39.212 E.03343
G1 X56.132 Y39.565 E.02127
G1 X56.434 Y39.192 E.01507
G1 X57.074 Y38.499 E.02958
G1 X57.885 Y37.708 E.03552
G1 X58.844 Y36.891 E.03947
G1 X59.909 Y36.129 E.04109
G1 X61.01 Y35.482 E.04003
G1 X62.155 Y34.922 E.03998
G1 X63.304 Y34.477 E.03861
G1 X64.536 Y34.106 E.04036
G1 X66.091 Y33.775 E.04984
G1 X67.733 Y33.603 E.05175
G1 X69.068 Y33.592 E.04187
G1 X70.401 Y33.715 E.04196
G1 X71.705 Y33.962 E.04162
G1 X73.033 Y34.352 E.04341
G1 X74.311 Y34.856 E.04308
G1 X75.549 Y35.488 E.04359
G1 X76.372 Y35.99 E.03023
G1 X77.059 Y36.469 E.02624
G1 X78.058 Y37.262 E.04
G1 X78.72 Y37.862 E.02801
G1 X79.434 Y38.591 E.03201
G1 X80.263 Y39.555 E.03985
G1 X81.184 Y40.807 E.04875
G1 X82.005 Y42.118 E.04848
G1 X82.36 Y42.762 E.02306
G1 X82.764 Y43.567 E.02825
G1 X83.373 Y44.976 E.04813
G1 X83.847 Y46.326 E.04488
G1 X84.215 Y47.656 E.04325
G1 X84.521 Y49.086 E.04587
G1 X84.762 Y50.634 E.04911
G1 X84.934 Y52.256 E.05113
G1 X85.029 Y53.873 E.0508
G1 X85.043 Y55.363 E.04672
G1 X84.995 Y56.584 E.03832
G1 X84.847 Y58.21 E.05119
G1 X84.574 Y59.808 E.05083
G1 X84.238 Y61.171 E.04398
G1 X83.809 Y62.548 E.04525
G1 X83.282 Y63.928 E.04629
G1 X82.651 Y65.298 E.04731
G1 X81.873 Y66.768 E.05215
G1 X81.076 Y68.099 E.04862
G1 X80.133 Y69.494 E.05281
G1 X79.179 Y70.725 E.04884
G1 X78.156 Y71.859 E.04789
G1 X77.041 Y72.904 E.04791
G1 X76.228 Y73.548 E.03252
G1 X75.529 Y74.039 E.02676
G1 X74.782 Y74.499 E.02751
G1 X73.778 Y75.024 E.03553
G1 X72.757 Y75.479 E.03504
G1 X71.783 Y75.838 E.03256
G1 X70.329 Y76.243 E.04733
G1 X68.835 Y76.502 E.04755
G1 X68.019 Y76.575 E.02568
G1 X67.234 Y76.605 E.02462
G1 X65.899 Y76.572 E.04189
G1 X64.347 Y76.388 E.04899
G1 X62.79 Y76.078 E.0498
G1 X61.643 Y75.729 E.03758
G1 X60.114 Y75.167 E.05108
G1 X59.303 Y74.742 E.0287
G1 X58.786 Y75.256 E.02286
G1 X57.859 Y76.121 E.03974
G1 X56.951 Y76.849 E.0365
G1 X56.316 Y77.388 E.02613
G1 X55.221 Y78.138 E.0416
G1 X54.103 Y78.78 E.04042
G1 X53.239 Y79.198 E.0301
G1 X52.353 Y79.565 E.03006
G1 X50.736 Y80.051 E.05294
G1 X49.126 Y80.353 E.05136
G1 X47.775 Y80.474 E.04252
G1 X45.725 Y80.445 E.06429
G1 X44.811 Y80.34 E.02886
G1 X43.907 Y80.189 E.02872
G1 X43.099 Y80.023 E.02586
G1 X42.172 Y79.777 E.03008
G1 X41.198 Y79.459 E.03214
G1 X40.252 Y79.086 E.03187
G1 X39.383 Y78.695 E.02988
G1 X38.607 Y78.299 E.02732
G1 X37.62 Y77.737 E.0356
G1 X36.474 Y77.003 E.04266
G1 X35.714 Y76.467 E.02917
G1 X34.986 Y75.898 E.02898
G1 X34.078 Y75.094 E.038
G1 X33.439 Y74.479 E.02783
G1 X32.886 Y73.885 E.02543
G1 X32.193 Y73.058 E.03386
G1 X31.598 Y72.253 E.03137
G1 X31.042 Y71.416 E.03152
G1 X30.542 Y70.565 E.03095
G1 X30.043 Y69.618 E.03357
G1 X29.608 Y68.688 E.03218
G1 X28.915 Y66.959 E.05841
G1 X28.431 Y65.561 E.0464
G1 X28.009 Y64.148 E.04623
G1 X27.772 Y63.203 E.03053
G1 X27.58 Y62.24 E.03081
G1 X27.434 Y61.25 E.03136
G1 X27.339 Y60.318 E.02938
G1 X27.282 Y59.159 E.03637
G1 X27.288 Y57.769 E.04359
G1 X27.32 Y56.899 E.02731
G1 X27.43 Y55.359 E.04841
G1 X27.549 Y54.306 E.03323
G1 X27.722 Y53.218 E.03453
G1 X27.949 Y52.157 E.03402
G1 X28.231 Y51.109 E.03405
G1 X28.497 Y50.282 E.02725
G1 X28.902 Y49.222 E.03556
G1 X29.321 Y48.268 E.03266
G1 X29.849 Y47.223 E.03671
G1 X30.362 Y46.331 E.03227
G1 X30.977 Y45.398 E.03503
G1 X31.833 Y44.247 E.04499
G1 X32.455 Y43.498 E.03053
G1 X33.223 Y42.68 E.03517
G1 X33.928 Y42.01 E.03049
G1 X34.725 Y41.32 E.03306
G1 X34.971 Y41.604 F9000
G1 F1200
G1 X36.297 Y40.599 E.05217
G1 X37.346 Y39.928 E.03902
G1 X38.124 Y39.498 E.02789
G1 X38.984 Y39.073 E.03009
G1 X39.929 Y38.665 E.03225
G1 X41.061 Y38.246 E.03785
G1 X41.976 Y37.962 E.03004
G1 X42.783 Y37.752 E.02615
G1 X43.612 Y37.582 E.02654
G1 X44.478 Y37.442 E.02752
G1 X45.379 Y37.346 E.02839
G1 X46.428 Y37.301 E.03294
G1 X47.542 Y37.328 E.03494
G1 X48.732 Y37.443 E.03748
G1 X50.188 Y37.672 E.04622
G1 X51.7 Y38.051 E.04886
G1 X52.509 Y38.304 E.02657
G1 X53.574 Y38.693 E.03556
G1 X54.447 Y39.072 E.02983
G1 X55.375 Y39.545 E.03265
G1 X56.218 Y40.059 E.03096
G1 X56.716 Y39.443 E.02485
G1 X57.341 Y38.765 E.02892
G1 X58.135 Y37.991 E.03477
G1 X59.07 Y37.193 E.03852
G1 X60.108 Y36.45 E.04004
G1 X61.182 Y35.817 E.03908
G1 X62.314 Y35.264 E.0395
G1 X63.42 Y34.836 E.03718
G1 X64.638 Y34.469 E.03989
G1 X66.159 Y34.145 E.04878
G1 X67.763 Y33.979 E.05053
G1 X69.043 Y33.969 E.04015
G1 X70.339 Y34.087 E.04081
G1 X71.625 Y34.331 E.04104
G1 X72.919 Y34.711 E.04227
G1 X74.164 Y35.203 E.04198
G1 X75.371 Y35.821 E.04251
G1 X76.161 Y36.303 E.02903
G1 X76.829 Y36.768 E.0255
G1 X77.818 Y37.554 E.03962
G1 X78.462 Y38.137 E.02725
G1 X79.152 Y38.842 E.03092
G1 X79.964 Y39.784 E.03898
G1 X80.868 Y41.014 E.04786
G1 X81.677 Y42.304 E.04776
G1 X82.024 Y42.934 E.02255
G1 X82.424 Y43.731 E.02796
G1 X83.025 Y45.119 E.04742
G1 X83.489 Y46.445 E.04405
G1 X83.851 Y47.751 E.04248
G1 X84.149 Y49.15 E.04485
